(G-CODE GENERATED BY FLATCAM v8.994 - www.flatcam.org - Version Date: 2020/11/7)

(Name: ESP32 Plotter-B_Cu.gbr_iso_combined_cnc)
(Type: G-code from Geometry)
(Units: MM)

(Created on Sunday, 19 February 2023 at 18:55)

(This preprocessor is the default preprocessor used by FlatCAM.)
(It is made to work with MACH3 compatible motion controllers.)

(TOOL DIAMETER: 0.2388 mm)
(Feedrate_XY: 120.0 mm/min)
(Feedrate_Z: 60.0 mm/min)
(Feedrate rapids 1500.0 mm/min)

(Z_Cut: -0.11 mm)
(Z_Move: 2.0 mm)
(Z Start: None mm)
(Z End: 5.0 mm)
(X,Y End: None mm)
(Steps per circle: 64)
(Preprocessor Geometry: default)

(X range:    0.3528 ...   68.4693  mm)
(Y range:    0.1000 ...   48.4000  mm)

(Spindle Speed: 0.0 RPM)
G21
G90
G94

G01 F120.00

M5
G00 Z15.0000
G00 X0.0000 Y0.0000
T1
M6    
(MSG, Change to Tool Dia = 0.2388)
M0
G00 Z15.0000

M03
G01 F120.00
G00 X0.3528 Y1.9992
G01 F60.00
G01 Z-0.1100
G01 F120.00
G01 X0.3635 Y1.9738
G01 X0.3668 Y1.9630
G01 X0.3690 Y1.9518
G01 X0.4011 Y1.6998
G01 X0.4681 Y1.4625
G01 X0.5694 Y1.2376
G01 X0.7028 Y1.0302
G01 X0.8654 Y0.8448
G01 X1.0536 Y0.6855
G01 X1.2633 Y0.5557
G01 X1.4898 Y0.4584
G01 X1.7283 Y0.3956
G01 X1.9626 Y0.3699
G01 X1.9704 Y0.3688
G01 X1.9976 Y0.3634
G01 X2.0079 Y0.3667
G01 X2.0162 Y0.3688
G01 X2.0246 Y0.3702
G01 X2.0331 Y0.3711
G01 X2.2198 Y0.3784
G01 X2.4621 Y0.4244
G01 X2.6949 Y0.5057
G01 X2.9132 Y0.6206
G01 X3.1120 Y0.7664
G01 X3.2872 Y0.9400
G01 X3.4347 Y1.1376
G01 X3.5514 Y1.3548
G01 X3.6347 Y1.5869
G01 X3.6829 Y1.8287
G01 X3.6947 Y2.0751
G01 X3.6700 Y2.3204
G01 X3.6365 Y2.4521
G01 X3.6093 Y2.5594
G01 X3.5139 Y2.7868
G01 X3.3860 Y2.9976
G01 X3.2283 Y3.1872
G01 X3.0443 Y3.3515
G01 X2.8381 Y3.4867
G01 X2.6142 Y3.5899
G01 X2.4640 Y3.6337
G01 X2.3774 Y3.6589
G01 X2.1331 Y3.6922
G01 X1.8865 Y3.6889
G01 X1.6431 Y3.6493
G01 X1.4082 Y3.5741
G01 X1.1871 Y3.4650
G01 X0.9845 Y3.3245
G01 X0.8048 Y3.1555
G01 X0.6522 Y2.9619
G01 X0.5298 Y2.7478
G01 X0.4404 Y2.5179
G01 X0.3860 Y2.2774
G01 X0.3701 Y2.0654
G01 X0.3644 Y2.0330
G01 X0.3625 Y2.0244
G01 X0.3580 Y2.0105
G01 X0.3528 Y1.9992
G00 Z2.0000
G00 X0.4922 Y2.0024
G01 F60.00
G01 Z-0.1100
G01 F120.00
G01 X0.4968 Y1.9833
G01 X0.4997 Y1.9656
G01 X0.5302 Y1.7261
G01 X0.5918 Y1.5075
G01 X0.6851 Y1.3005
G01 X0.8079 Y1.1095
G01 X0.9577 Y0.9388
G01 X1.1310 Y0.7920
G01 X1.3241 Y0.6725
G01 X1.5327 Y0.5829
G01 X1.7523 Y0.5251
G01 X1.9769 Y0.5005
G01 X1.9934 Y0.4981
G01 X2.0070 Y0.5004
G01 X2.0248 Y0.5021
G01 X2.2049 Y0.5093
G01 X2.4280 Y0.5516
G01 X2.6424 Y0.6265
G01 X2.8434 Y0.7322
G01 X3.0265 Y0.8665
G01 X3.1878 Y1.0264
G01 X3.3236 Y1.2083
G01 X3.4311 Y1.4084
G01 X3.5078 Y1.6221
G01 X3.5521 Y1.8448
G01 X3.5630 Y2.0716
G01 X3.5403 Y2.2975
G01 X3.5092 Y2.4198
G01 X3.4844 Y2.5176
G01 X3.3966 Y2.7270
G01 X3.2788 Y2.9212
G01 X3.1336 Y3.0958
G01 X2.9642 Y3.2470
G01 X2.7743 Y3.3715
G01 X2.5680 Y3.4665
G01 X2.4272 Y3.5076
G01 X2.3500 Y3.5301
G01 X2.1250 Y3.5607
G01 X1.8980 Y3.5577
G01 X1.6738 Y3.5212
G01 X1.4576 Y3.4520
G01 X1.2539 Y3.3516
G01 X1.0673 Y3.2221
G01 X0.9019 Y3.0665
G01 X0.7614 Y2.8882
G01 X0.6657 Y2.7208
G01 X0.6487 Y2.6911
G01 X0.5664 Y2.4794
G01 X0.5163 Y2.2580
G01 X0.5011 Y2.0553
G01 X0.4983 Y2.0356
G01 X0.4922 Y2.0024
G00 Z2.0000
G00 X0.6263 Y2.0053
G01 F60.00
G01 Z-0.1100
G01 F120.00
G01 X0.6300 Y1.9822
G01 X0.6593 Y1.7523
G01 X0.7156 Y1.5526
G01 X0.8008 Y1.3633
G01 X0.9131 Y1.1887
G01 X1.0500 Y1.0327
G01 X1.2084 Y0.8986
G01 X1.3849 Y0.7894
G01 X1.5756 Y0.7074
G01 X1.7763 Y0.6546
G01 X1.9924 Y0.6309
G01 X2.0075 Y0.6325
G01 X2.0256 Y0.6337
G01 X2.1900 Y0.6401
G01 X2.3939 Y0.6789
G01 X2.5899 Y0.7473
G01 X2.7736 Y0.8439
G01 X2.9410 Y0.9667
G01 X3.0884 Y1.1128
G01 X3.2125 Y1.2791
G01 X3.3108 Y1.4619
G01 X3.3809 Y1.6573
G01 X3.4214 Y1.8608
G01 X3.4314 Y2.0682
G01 X3.4106 Y2.2747
G01 X3.3819 Y2.3874
G01 X3.3595 Y2.4758
G01 X3.2792 Y2.6672
G01 X3.1715 Y2.8447
G01 X3.0388 Y3.0043
G01 X2.8840 Y3.1425
G01 X2.7104 Y3.2563
G01 X2.5219 Y3.3432
G01 X2.3905 Y3.3815
G01 X2.3226 Y3.4013
G01 X2.1170 Y3.4292
G01 X1.9095 Y3.4265
G01 X1.7046 Y3.3932
G01 X1.5069 Y3.3299
G01 X1.3208 Y3.2381
G01 X1.1502 Y3.1198
G01 X0.9991 Y2.9776
G01 X0.8706 Y2.8146
G01 X0.7797 Y2.6556
G01 X0.7676 Y2.6344
G01 X0.6923 Y2.4409
G01 X0.6465 Y2.2385
G01 X0.6327 Y2.0522
G01 X0.6307 Y2.0321
G01 X0.6263 Y2.0053
G00 Z2.0000
G00 X0.7594 Y2.0049
G01 F60.00
G01 Z-0.1100
G01 F120.00
G01 X0.7883 Y1.7786
G01 X0.8392 Y1.5982
G01 X0.9188 Y1.4228
G01 X1.0179 Y1.2686
G01 X1.1454 Y1.1240
G01 X1.2853 Y1.0056
G01 X1.4494 Y0.9046
G01 X1.5377 Y0.8667
G01 X1.6217 Y0.8311
G01 X1.8003 Y0.7841
G01 X1.9924 Y0.7631
G01 X2.0187 Y0.7649
G01 X2.1788 Y0.7717
G01 X2.3599 Y0.8061
G01 X2.5374 Y0.8681
G01 X2.7032 Y0.9553
G01 X2.8583 Y1.0696
G01 X2.9890 Y1.1992
G01 X3.1015 Y1.3499
G01 X3.1905 Y1.5155
G01 X3.2540 Y1.6925
G01 X3.2907 Y1.8769
G01 X3.2997 Y2.0647
G01 X3.2809 Y2.2518
G01 X3.2546 Y2.3551
G01 X3.2346 Y2.4340
G01 X3.1619 Y2.6075
G01 X3.0643 Y2.7682
G01 X2.9441 Y2.9128
G01 X2.8038 Y3.0380
G01 X2.6466 Y3.1411
G01 X2.4758 Y3.2198
G01 X2.2959 Y3.2722
G01 X2.1049 Y3.2977
G01 X1.9176 Y3.2948
G01 X1.7353 Y3.2651
G01 X1.5795 Y3.2152
G01 X1.5545 Y3.2069
G01 X1.3876 Y3.1246
G01 X1.2331 Y3.0174
G01 X1.0962 Y2.8886
G01 X0.9797 Y2.7409
G01 X0.8859 Y2.5762
G01 X0.8185 Y2.4030
G01 X0.7765 Y2.2150
G01 X0.7637 Y2.0424
G01 X0.7625 Y2.0289
G01 X0.7594 Y2.0049
G00 Z2.0000
G00 X4.5829 Y2.0281
G01 F60.00
G01 Z-0.1100
G01 F120.00
G01 X4.5842 Y1.9742
G01 X4.6112 Y1.7687
G01 X4.6705 Y1.5738
G01 X4.7607 Y1.3911
G01 X4.8796 Y1.2257
G01 X5.0240 Y1.0818
G01 X5.1898 Y0.9635
G01 X5.3728 Y0.8739
G01 X5.5680 Y0.8153
G01 X5.7701 Y0.7894
G01 X5.9737 Y0.7969
G01 X6.1734 Y0.8375
G01 X6.3637 Y0.9102
G01 X6.5397 Y1.0130
G01 X6.6964 Y1.1432
G01 X6.8298 Y1.2972
G01 X6.8851 Y1.3874
G01 X6.8899 Y1.3946
G01 X6.8970 Y1.4036
G01 X6.9249 Y1.4354
G01 X6.9349 Y1.4456
G01 X6.9414 Y1.4511
G01 X6.9484 Y1.4561
G01 X6.9557 Y1.4606
G01 X6.9632 Y1.4645
G01 X7.0366 Y1.4955
G01 X7.0450 Y1.4985
G01 X7.0565 Y1.5014
G01 X7.0682 Y1.5032
G01 X7.0801 Y1.5038
G01 X7.0919 Y1.5032
G01 X7.1007 Y1.5020
G01 X7.1707 Y1.4898
G01 X7.1822 Y1.4871
G01 X7.1962 Y1.4823
G01 X7.2069 Y1.4772
G01 X7.2171 Y1.4710
G01 X7.2288 Y1.4620
G01 X7.2644 Y1.4292
G01 X7.2733 Y1.4227
G01 X7.2800 Y1.4169
G01 X7.2862 Y1.4107
G01 X7.2919 Y1.4040
G01 X7.4202 Y1.2258
G01 X7.5645 Y1.0821
G01 X7.7303 Y0.9638
G01 X7.9128 Y0.8744
G01 X7.9931 Y0.8503
G01 X7.9931 Y1.1369
G01 X7.9095 Y1.1766
G01 X7.8329 Y1.2223
G01 X7.8231 Y1.2288
G01 X7.7515 Y1.2821
G01 X7.6853 Y1.3420
G01 X7.6770 Y1.3503
G01 X7.6171 Y1.4165
G01 X7.5638 Y1.4881
G01 X7.5573 Y1.4979
G01 X7.5116 Y1.5745
G01 X7.4733 Y1.6552
G01 X7.4688 Y1.6660
G01 X7.4388 Y1.7501
G01 X7.4170 Y1.8367
G01 X7.4147 Y1.8482
G01 X7.4018 Y1.9365
G01 X7.3971 Y2.0315
G01 X7.4013 Y2.1207
G01 X7.4025 Y2.1323
G01 X7.4157 Y2.2206
G01 X7.4373 Y2.3073
G01 X7.4407 Y2.3185
G01 X7.4709 Y2.4025
G01 X7.5116 Y2.4885
G01 X7.5573 Y2.5651
G01 X7.5638 Y2.5749
G01 X7.6135 Y2.6419
G01 X7.6210 Y2.6509
G01 X7.6810 Y2.7170
G01 X7.7468 Y2.7768
G01 X7.7468 Y3.1043
G01 X7.6785 Y3.0665
G01 X7.5187 Y2.9403
G01 X7.3820 Y2.7900
G01 X7.3003 Y2.6641
G01 X7.2947 Y2.6569
G01 X7.2721 Y2.6302
G01 X7.2661 Y2.6239
G01 X7.2596 Y2.6181
G01 X7.2504 Y2.6111
G01 X7.2379 Y2.6036
G01 X7.1716 Y2.5711
G01 X7.1635 Y2.5674
G01 X7.1523 Y2.5636
G01 X7.1378 Y2.5603
G01 X7.1231 Y2.5589
G01 X7.1112 Y2.5591
G01 X7.0348 Y2.5678
G01 X7.0202 Y2.5704
G01 X7.0060 Y2.5748
G01 X6.9952 Y2.5796
G01 X6.9848 Y2.5854
G01 X6.9751 Y2.5922
G01 X6.9157 Y2.6409
G01 X6.9095 Y2.6467
G01 X6.9037 Y2.6529
G01 X6.8950 Y2.6641
G01 X6.7928 Y2.8140
G01 X6.6520 Y2.9613
G01 X6.4891 Y3.0836
G01 X6.3083 Y3.1777
G01 X6.1146 Y3.2410
G01 X5.9132 Y3.2718
G01 X5.7095 Y3.2693
G01 X5.5089 Y3.2336
G01 X5.3168 Y3.1656
G01 X5.1384 Y3.0671
G01 X4.9785 Y2.9408
G01 X4.8414 Y2.7901
G01 X4.7307 Y2.6190
G01 X4.6495 Y2.4322
G01 X4.5998 Y2.2346
G01 X4.5829 Y2.0281
G00 Z2.0000
G00 X4.7143 Y2.0243
G01 F60.00
G01 Z-0.1100
G01 F120.00
G01 X4.7153 Y1.9844
G01 X4.7400 Y1.7966
G01 X4.7930 Y1.6223
G01 X4.8737 Y1.4590
G01 X4.9800 Y1.3111
G01 X5.1090 Y1.1825
G01 X5.2573 Y1.0767
G01 X5.4209 Y0.9966
G01 X5.5954 Y0.9442
G01 X5.7761 Y0.9211
G01 X5.9581 Y0.9277
G01 X6.0566 Y0.9478
G01 X6.1366 Y0.9641
G01 X6.3068 Y1.0291
G01 X6.4641 Y1.1210
G01 X6.6042 Y1.2373
G01 X6.7235 Y1.3750
G01 X6.7763 Y1.4611
G01 X6.7831 Y1.4711
G01 X6.7904 Y1.4807
G01 X6.7981 Y1.4900
G01 X6.8341 Y1.5307
G01 X6.8470 Y1.5432
G01 X6.8608 Y1.5547
G01 X6.8704 Y1.5619
G01 X6.8804 Y1.5685
G01 X6.8959 Y1.5776
G01 X6.9066 Y1.5830
G01 X6.9829 Y1.6155
G01 X6.9945 Y1.6200
G01 X7.0123 Y1.6257
G01 X7.0305 Y1.6301
G01 X7.0427 Y1.6323
G01 X7.0551 Y1.6338
G01 X7.0737 Y1.6350
G01 X7.0862 Y1.6350
G01 X7.0986 Y1.6344
G01 X7.1172 Y1.6323
G01 X7.1933 Y1.6191
G01 X7.2055 Y1.6167
G01 X7.2176 Y1.6136
G01 X7.2354 Y1.6079
G01 X7.2471 Y1.6034
G01 X7.2585 Y1.5983
G01 X7.2696 Y1.5926
G01 X7.2804 Y1.5864
G01 X7.2909 Y1.5796
G01 X7.3011 Y1.5724
G01 X7.3156 Y1.5605
G01 X7.3639 Y1.5181
G01 X7.3777 Y1.5050
G01 X7.3863 Y1.4958
G01 X7.3945 Y1.4861
G01 X7.4021 Y1.4760
G01 X7.5204 Y1.3114
G01 X7.6494 Y1.1829
G01 X7.7976 Y1.0771
G01 X7.8618 Y1.0457
G01 X7.8618 Y1.0537
G01 X7.8422 Y1.0637
G01 X7.7601 Y1.1129
G01 X7.7449 Y1.1234
G01 X7.6779 Y1.1730
G01 X7.6682 Y1.1806
G01 X7.6589 Y1.1887
G01 X7.5971 Y1.2447
G01 X7.5882 Y1.2532
G01 X7.5797 Y1.2621
G01 X7.5237 Y1.3239
G01 X7.5156 Y1.3332
G01 X7.5080 Y1.3429
G01 X7.4584 Y1.4099
G01 X7.4513 Y1.4200
G01 X7.4447 Y1.4304
G01 X7.4018 Y1.5019
G01 X7.3957 Y1.5126
G01 X7.3902 Y1.5236
G01 X7.3545 Y1.5990
G01 X7.3495 Y1.6103
G01 X7.3451 Y1.6217
G01 X7.3170 Y1.7003
G01 X7.3132 Y1.7120
G01 X7.3099 Y1.7238
G01 X7.2896 Y1.8047
G01 X7.2869 Y1.8168
G01 X7.2848 Y1.8289
G01 X7.2726 Y1.9114
G01 X7.2711 Y1.9236
G01 X7.2702 Y1.9359
G01 X7.2661 Y2.0192
G01 X7.2658 Y2.0315
G01 X7.2661 Y2.0438
G01 X7.2702 Y2.1271
G01 X7.2711 Y2.1394
G01 X7.2726 Y2.1516
G01 X7.2848 Y2.2341
G01 X7.2869 Y2.2462
G01 X7.2896 Y2.2583
G01 X7.3099 Y2.3392
G01 X7.3132 Y2.3510
G01 X7.3170 Y2.3627
G01 X7.3451 Y2.4413
G01 X7.3495 Y2.4527
G01 X7.3545 Y2.4640
G01 X7.3902 Y2.5394
G01 X7.3957 Y2.5504
G01 X7.4018 Y2.5611
G01 X7.4447 Y2.6326
G01 X7.4513 Y2.6430
G01 X7.4584 Y2.6531
G01 X7.5080 Y2.7201
G01 X7.5196 Y2.7345
G01 X7.5839 Y2.8054
G01 X7.5926 Y2.8141
G01 X7.6155 Y2.8350
G01 X7.6155 Y2.8494
G01 X7.6088 Y2.8441
G01 X7.4862 Y2.7094
G01 X7.4140 Y2.5978
G01 X7.4068 Y2.5872
G01 X7.3950 Y2.5721
G01 X7.3703 Y2.5430
G01 X7.3577 Y2.5298
G01 X7.3487 Y2.5215
G01 X7.3394 Y2.5137
G01 X7.3247 Y2.5028
G01 X7.3145 Y2.4962
G01 X7.2986 Y2.4871
G01 X7.2238 Y2.4505
G01 X7.2124 Y2.4455
G01 X7.2007 Y2.4412
G01 X7.1828 Y2.4358
G01 X7.1707 Y2.4329
G01 X7.1523 Y2.4297
G01 X7.1399 Y2.4284
G01 X7.1275 Y2.4277
G01 X7.1088 Y2.4277
G01 X7.0902 Y2.4292
G01 X7.0197 Y2.4374
G01 X7.0073 Y2.4391
G01 X6.9951 Y2.4414
G01 X6.9830 Y2.4444
G01 X6.9711 Y2.4480
G01 X6.9593 Y2.4521
G01 X6.9478 Y2.4568
G01 X6.9365 Y2.4621
G01 X6.9255 Y2.4679
G01 X6.9096 Y2.4777
G01 X6.8944 Y2.4886
G01 X6.8347 Y2.5375
G01 X6.8212 Y2.5493
G01 X6.8128 Y2.5577
G01 X6.8047 Y2.5665
G01 X6.7971 Y2.5757
G01 X6.7899 Y2.5852
G01 X6.6904 Y2.7310
G01 X6.5645 Y2.8627
G01 X6.4188 Y2.9721
G01 X6.2573 Y3.0562
G01 X6.0841 Y3.1128
G01 X5.9040 Y3.1404
G01 X5.7219 Y3.1381
G01 X5.5426 Y3.1062
G01 X5.3708 Y3.0454
G01 X5.2114 Y2.9574
G01 X5.0684 Y2.8445
G01 X4.9458 Y2.7097
G01 X4.8469 Y2.5568
G01 X4.7742 Y2.3897
G01 X4.7299 Y2.2130
G01 X4.7143 Y2.0243
G00 Z2.0000
G00 X6.7905 Y1.9307
G01 F60.00
G01 Z-0.1100
G01 F120.00
G01 X6.7917 Y1.9423
G01 X6.7959 Y2.0315
G01 X6.7912 Y2.1265
G01 X6.7773 Y2.2206
G01 X6.7542 Y2.3129
G01 X6.7221 Y2.4025
G01 X6.6814 Y2.4885
G01 X6.6325 Y2.5701
G01 X6.5759 Y2.6465
G01 X6.5120 Y2.7170
G01 X6.4415 Y2.7809
G01 X6.3651 Y2.8375
G01 X6.2835 Y2.8864
G01 X6.1975 Y2.9271
G01 X6.1079 Y2.9592
G01 X6.0156 Y2.9823
G01 X5.9215 Y2.9962
G01 X5.8265 Y3.0009
G01 X5.7315 Y2.9962
G01 X5.6374 Y2.9823
G01 X5.5451 Y2.9592
G01 X5.4555 Y2.9271
G01 X5.3695 Y2.8864
G01 X5.2879 Y2.8375
G01 X5.2115 Y2.7809
G01 X5.1410 Y2.7170
G01 X5.0771 Y2.6465
G01 X5.0205 Y2.5701
G01 X4.9716 Y2.4885
G01 X4.9309 Y2.4025
G01 X4.8988 Y2.3129
G01 X4.8757 Y2.2206
G01 X4.8618 Y2.1265
G01 X4.8571 Y2.0315
G01 X4.8618 Y1.9365
G01 X4.8757 Y1.8424
G01 X4.8988 Y1.7501
G01 X4.9309 Y1.6605
G01 X4.9716 Y1.5745
G01 X5.0205 Y1.4929
G01 X5.0771 Y1.4165
G01 X5.1410 Y1.3460
G01 X5.2115 Y1.2821
G01 X5.2879 Y1.2255
G01 X5.3695 Y1.1766
G01 X5.4555 Y1.1359
G01 X5.5451 Y1.1038
G01 X5.6374 Y1.0807
G01 X5.7315 Y1.0668
G01 X5.8265 Y1.0621
G01 X5.9215 Y1.0668
G01 X6.0156 Y1.0807
G01 X6.1079 Y1.1038
G01 X6.1975 Y1.1359
G01 X6.2835 Y1.1766
G01 X6.3651 Y1.2255
G01 X6.4415 Y1.2821
G01 X6.5120 Y1.3460
G01 X6.5759 Y1.4165
G01 X6.6325 Y1.4929
G01 X6.6814 Y1.5745
G01 X6.7221 Y1.6605
G01 X6.7542 Y1.7501
G01 X6.7773 Y1.8424
G01 X6.7905 Y1.9307
G00 Z2.0000
G00 X6.9204 Y1.9114
G01 F60.00
G01 Z-0.1100
G01 F120.00
G01 X6.9219 Y1.9236
G01 X6.9228 Y1.9359
G01 X6.9269 Y2.0192
G01 X6.9272 Y2.0315
G01 X6.9269 Y2.0438
G01 X6.9228 Y2.1271
G01 X6.9219 Y2.1394
G01 X6.9204 Y2.1516
G01 X6.9082 Y2.2341
G01 X6.9061 Y2.2462
G01 X6.9034 Y2.2583
G01 X6.8831 Y2.3392
G01 X6.8798 Y2.3510
G01 X6.8760 Y2.3627
G01 X6.8479 Y2.4413
G01 X6.8435 Y2.4527
G01 X6.8385 Y2.4640
G01 X6.8028 Y2.5394
G01 X6.7973 Y2.5504
G01 X6.7912 Y2.5611
G01 X6.7483 Y2.6326
G01 X6.7417 Y2.6430
G01 X6.7346 Y2.6531
G01 X6.6850 Y2.7201
G01 X6.6774 Y2.7298
G01 X6.6693 Y2.7391
G01 X6.6133 Y2.8009
G01 X6.6048 Y2.8098
G01 X6.5959 Y2.8183
G01 X6.5341 Y2.8743
G01 X6.5248 Y2.8824
G01 X6.5151 Y2.8900
G01 X6.4481 Y2.9396
G01 X6.4380 Y2.9467
G01 X6.4276 Y2.9533
G01 X6.3561 Y2.9962
G01 X6.3454 Y3.0023
G01 X6.3344 Y3.0078
G01 X6.2590 Y3.0435
G01 X6.2477 Y3.0485
G01 X6.2363 Y3.0529
G01 X6.1577 Y3.0810
G01 X6.1460 Y3.0848
G01 X6.1342 Y3.0881
G01 X6.0533 Y3.1084
G01 X6.0412 Y3.1111
G01 X6.0291 Y3.1132
G01 X5.9466 Y3.1254
G01 X5.9344 Y3.1269
G01 X5.9221 Y3.1278
G01 X5.8388 Y3.1319
G01 X5.8265 Y3.1322
G01 X5.8142 Y3.1319
G01 X5.7309 Y3.1278
G01 X5.7186 Y3.1269
G01 X5.7064 Y3.1254
G01 X5.6239 Y3.1132
G01 X5.6118 Y3.1111
G01 X5.5997 Y3.1084
G01 X5.5188 Y3.0881
G01 X5.5070 Y3.0848
G01 X5.4953 Y3.0810
G01 X5.4167 Y3.0529
G01 X5.4053 Y3.0485
G01 X5.3940 Y3.0435
G01 X5.3186 Y3.0078
G01 X5.3076 Y3.0023
G01 X5.2969 Y2.9962
G01 X5.2254 Y2.9533
G01 X5.2150 Y2.9467
G01 X5.2049 Y2.9396
G01 X5.1379 Y2.8900
G01 X5.1282 Y2.8824
G01 X5.1189 Y2.8743
G01 X5.0571 Y2.8183
G01 X5.0482 Y2.8098
G01 X5.0397 Y2.8009
G01 X4.9837 Y2.7391
G01 X4.9756 Y2.7298
G01 X4.9680 Y2.7201
G01 X4.9184 Y2.6531
G01 X4.9113 Y2.6430
G01 X4.9047 Y2.6326
G01 X4.8618 Y2.5611
G01 X4.8557 Y2.5504
G01 X4.8502 Y2.5394
G01 X4.8145 Y2.4640
G01 X4.8095 Y2.4527
G01 X4.8051 Y2.4413
G01 X4.7770 Y2.3627
G01 X4.7732 Y2.3510
G01 X4.7699 Y2.3392
G01 X4.7496 Y2.2583
G01 X4.7469 Y2.2462
G01 X4.7448 Y2.2341
G01 X4.7326 Y2.1516
G01 X4.7311 Y2.1394
G01 X4.7302 Y2.1271
G01 X4.7261 Y2.0438
G01 X4.7258 Y2.0315
G01 X4.7261 Y2.0192
G01 X4.7302 Y1.9359
G01 X4.7311 Y1.9236
G01 X4.7326 Y1.9114
G01 X4.7448 Y1.8289
G01 X4.7469 Y1.8168
G01 X4.7496 Y1.8047
G01 X4.7699 Y1.7238
G01 X4.7732 Y1.7120
G01 X4.7770 Y1.7003
G01 X4.8051 Y1.6217
G01 X4.8095 Y1.6103
G01 X4.8145 Y1.5990
G01 X4.8502 Y1.5236
G01 X4.8557 Y1.5126
G01 X4.8618 Y1.5019
G01 X4.9047 Y1.4304
G01 X4.9113 Y1.4200
G01 X4.9184 Y1.4099
G01 X4.9680 Y1.3429
G01 X4.9756 Y1.3332
G01 X4.9837 Y1.3239
G01 X5.0397 Y1.2621
G01 X5.0482 Y1.2532
G01 X5.0571 Y1.2447
G01 X5.1189 Y1.1887
G01 X5.1282 Y1.1806
G01 X5.1379 Y1.1730
G01 X5.2049 Y1.1234
G01 X5.2150 Y1.1163
G01 X5.2254 Y1.1097
G01 X5.2969 Y1.0668
G01 X5.3076 Y1.0607
G01 X5.3186 Y1.0552
G01 X5.3940 Y1.0195
G01 X5.4053 Y1.0145
G01 X5.4167 Y1.0101
G01 X5.4953 Y0.9820
G01 X5.5070 Y0.9782
G01 X5.5188 Y0.9749
G01 X5.5997 Y0.9546
G01 X5.6118 Y0.9519
G01 X5.6239 Y0.9498
G01 X5.7064 Y0.9376
G01 X5.7186 Y0.9361
G01 X5.7309 Y0.9352
G01 X5.8142 Y0.9311
G01 X5.8265 Y0.9308
G01 X5.8388 Y0.9311
G01 X5.9221 Y0.9352
G01 X5.9344 Y0.9361
G01 X5.9466 Y0.9376
G01 X6.0291 Y0.9498
G01 X6.0412 Y0.9519
G01 X6.0533 Y0.9546
G01 X6.1342 Y0.9749
G01 X6.1460 Y0.9782
G01 X6.1577 Y0.9820
G01 X6.2363 Y1.0101
G01 X6.2477 Y1.0145
G01 X6.2590 Y1.0195
G01 X6.3344 Y1.0552
G01 X6.3454 Y1.0607
G01 X6.3561 Y1.0668
G01 X6.4276 Y1.1097
G01 X6.4380 Y1.1163
G01 X6.4481 Y1.1234
G01 X6.5151 Y1.1730
G01 X6.5248 Y1.1806
G01 X6.5341 Y1.1887
G01 X6.5959 Y1.2447
G01 X6.6048 Y1.2532
G01 X6.6133 Y1.2621
G01 X6.6693 Y1.3239
G01 X6.6774 Y1.3332
G01 X6.6850 Y1.3429
G01 X6.7346 Y1.4099
G01 X6.7417 Y1.4200
G01 X6.7483 Y1.4304
G01 X6.7912 Y1.5019
G01 X6.7973 Y1.5126
G01 X6.8028 Y1.5236
G01 X6.8385 Y1.5990
G01 X6.8435 Y1.6103
G01 X6.8479 Y1.6217
G01 X6.8760 Y1.7003
G01 X6.8798 Y1.7120
G01 X6.8831 Y1.7238
G01 X6.9034 Y1.8047
G01 X6.9061 Y1.8168
G01 X6.9082 Y1.8289
G01 X6.9204 Y1.9114
G00 Z2.0000
G00 X7.0504 Y1.8921
G01 F60.00
G01 Z-0.1100
G01 F120.00
G01 X7.0366 Y1.8004
G01 X7.0330 Y1.7820
G01 X7.0283 Y1.7629
G01 X7.0420 Y1.7645
G01 X7.0609 Y1.7659
G01 X7.0798 Y1.7664
G01 X7.0988 Y1.7660
G01 X7.1272 Y1.7635
G01 X7.1661 Y1.7572
G01 X7.1600 Y1.7820
G01 X7.1564 Y1.8004
G01 X7.1414 Y1.9014
G01 X7.1390 Y1.9294
G01 X7.1349 Y2.0128
G01 X7.1344 Y2.0315
G01 X7.1349 Y2.0502
G01 X7.1390 Y2.1336
G01 X7.1414 Y2.1616
G01 X7.1564 Y2.2626
G01 X7.1600 Y2.2810
G01 X7.1644 Y2.2989
G01 X7.1508 Y2.2975
G01 X7.1319 Y2.2964
G01 X7.1034 Y2.2965
G01 X7.0845 Y2.2977
G01 X7.0273 Y2.3043
G01 X7.0330 Y2.2810
G01 X7.0381 Y2.2534
G01 X7.0516 Y2.1616
G01 X7.0540 Y2.1336
G01 X7.0581 Y2.0502
G01 X7.0585 Y2.0221
G01 X7.0535 Y1.9201
G01 X7.0504 Y1.8921
G00 Z2.0000
G00 X9.6744 Y1.4585
G01 F60.00
G01 Z-0.1100
G01 F120.00
G01 X9.6744 Y2.6024
G01 X9.6493 Y2.5892
G01 X9.6320 Y2.5815
G01 X9.6053 Y2.5715
G01 X9.5872 Y2.5659
G01 X9.5595 Y2.5593
G01 X9.5408 Y2.5560
G01 X9.5125 Y2.5529
G01 X9.4825 Y2.5513
G01 X9.5011 Y2.5116
G01 X9.5083 Y2.4943
G01 X9.5427 Y2.3981
G01 X9.5505 Y2.3711
G01 X9.5730 Y2.2810
G01 X9.5781 Y2.2534
G01 X9.5904 Y2.1709
G01 X9.5926 Y2.1523
G01 X9.5940 Y2.1336
G01 X9.5981 Y2.0502
G01 X9.5986 Y2.0315
G01 X9.5981 Y2.0128
G01 X9.5940 Y1.9294
G01 X9.5926 Y1.9107
G01 X9.5904 Y1.8921
G01 X9.5781 Y1.8096
G01 X9.5730 Y1.7820
G01 X9.5505 Y1.6919
G01 X9.5427 Y1.6649
G01 X9.5083 Y1.5687
G01 X9.5011 Y1.5514
G01 X9.4840 Y1.5149
G01 X9.5027 Y1.5129
G01 X9.5215 Y1.5099
G01 X9.5400 Y1.5060
G01 X9.5584 Y1.5012
G01 X9.5854 Y1.4923
G01 X9.6520 Y1.4676
G01 X9.6744 Y1.4585
G00 Z2.0000
G00 X11.6575 Y5.6923
G01 F60.00
G01 Z-0.1100
G01 F120.00
G01 X11.6575 Y3.6576
G01 X12.5176 Y2.7975
G01 X41.4052 Y2.7974
G01 X41.4603 Y2.7948
G01 X41.4726 Y2.7939
G01 X41.4848 Y2.7924
G01 X41.5455 Y2.7831
G01 X41.5575 Y2.7804
G01 X41.6170 Y2.7652
G01 X41.6749 Y2.7448
G01 X41.6864 Y2.7403
G01 X41.6976 Y2.7353
G01 X41.7476 Y2.7116
G01 X41.7637 Y2.7027
G01 X41.8162 Y2.6709
G01 X41.8263 Y2.6638
G01 X41.8754 Y2.6270
G01 X41.8847 Y2.6190
G01 X41.9300 Y2.5775
G01 X42.9801 Y1.5275
G01 X53.7779 Y1.5275
G01 X55.5785 Y3.3281
G01 X55.5824 Y3.4072
G01 X55.5833 Y3.4195
G01 X55.5848 Y3.4317
G01 X55.5963 Y3.5094
G01 X55.5984 Y3.5215
G01 X55.6011 Y3.5335
G01 X55.6202 Y3.6097
G01 X55.6235 Y3.6215
G01 X55.6274 Y3.6332
G01 X55.6538 Y3.7071
G01 X55.6582 Y3.7186
G01 X55.6632 Y3.7299
G01 X55.6968 Y3.8008
G01 X55.7023 Y3.8118
G01 X55.7084 Y3.8225
G01 X55.7488 Y3.8899
G01 X55.7553 Y3.9003
G01 X55.7624 Y3.9103
G01 X55.8092 Y3.9734
G01 X55.8168 Y3.9831
G01 X55.8248 Y3.9924
G01 X55.8775 Y4.0506
G01 X55.8860 Y4.0595
G01 X55.8949 Y4.0680
G01 X55.9531 Y4.1207
G01 X55.9624 Y4.1287
G01 X55.9721 Y4.1363
G01 X56.0352 Y4.1831
G01 X56.0452 Y4.1902
G01 X56.0556 Y4.1967
G01 X56.1230 Y4.2371
G01 X56.1337 Y4.2432
G01 X56.1447 Y4.2487
G01 X56.2156 Y4.2823
G01 X56.2269 Y4.2873
G01 X56.2384 Y4.2917
G01 X56.3123 Y4.3181
G01 X56.3240 Y4.3220
G01 X56.3358 Y4.3253
G01 X56.4120 Y4.3444
G01 X56.4240 Y4.3471
G01 X56.4361 Y4.3492
G01 X56.5138 Y4.3607
G01 X56.5260 Y4.3622
G01 X56.5383 Y4.3631
G01 X56.6167 Y4.3669
G01 X56.6290 Y4.3672
G01 X56.6413 Y4.3669
G01 X56.7197 Y4.3631
G01 X56.7320 Y4.3622
G01 X56.7442 Y4.3607
G01 X56.8219 Y4.3492
G01 X56.8340 Y4.3471
G01 X56.8460 Y4.3444
G01 X56.9222 Y4.3253
G01 X56.9340 Y4.3220
G01 X56.9457 Y4.3181
G01 X57.0196 Y4.2917
G01 X57.0311 Y4.2873
G01 X57.0424 Y4.2823
G01 X57.1133 Y4.2487
G01 X57.1243 Y4.2432
G01 X57.1350 Y4.2371
G01 X57.2024 Y4.1967
G01 X57.2128 Y4.1902
G01 X57.2228 Y4.1831
G01 X57.2859 Y4.1363
G01 X57.2956 Y4.1287
G01 X57.3049 Y4.1207
G01 X57.3636 Y4.0675
G01 X62.6779 Y4.0675
G01 X64.7780 Y6.1676
G01 X64.7780 Y15.0178
G01 X64.7452 Y15.0421
G01 X64.7308 Y15.0536
G01 X64.6490 Y15.1278
G01 X64.6361 Y15.1410
G01 X64.5702 Y15.2137
G01 X64.5583 Y15.2278
G01 X64.4961 Y15.3116
G01 X64.4890 Y15.3216
G01 X64.4825 Y15.3320
G01 X64.4320 Y15.4162
G01 X64.4259 Y15.4269
G01 X64.4204 Y15.4379
G01 X64.3759 Y15.5322
G01 X64.3690 Y15.5493
G01 X64.3360 Y15.6417
G01 X64.3321 Y15.6534
G01 X64.3288 Y15.6653
G01 X64.3050 Y15.7605
G01 X64.3023 Y15.7725
G01 X64.3002 Y15.7846
G01 X64.2858 Y15.8817
G01 X64.2843 Y15.8939
G01 X64.2834 Y15.9062
G01 X64.2786 Y16.0042
G01 X64.2783 Y16.0165
G01 X64.2786 Y16.0288
G01 X64.2834 Y16.1268
G01 X64.2850 Y16.1452
G01 X64.3002 Y16.2484
G01 X64.3023 Y16.2605
G01 X64.3050 Y16.2725
G01 X64.3288 Y16.3677
G01 X64.3321 Y16.3796
G01 X64.3360 Y16.3913
G01 X64.3690 Y16.4837
G01 X64.3735 Y16.4951
G01 X64.3785 Y16.5064
G01 X64.4204 Y16.5951
G01 X64.4259 Y16.6061
G01 X64.4320 Y16.6168
G01 X64.4825 Y16.7010
G01 X64.4890 Y16.7114
G01 X64.4961 Y16.7214
G01 X64.5546 Y16.8003
G01 X64.5622 Y16.8100
G01 X64.5702 Y16.8193
G01 X64.6361 Y16.8920
G01 X64.6446 Y16.9009
G01 X64.6535 Y16.9094
G01 X64.7262 Y16.9753
G01 X64.7355 Y16.9833
G01 X64.7452 Y16.9909
G01 X64.8241 Y17.0494
G01 X64.8341 Y17.0565
G01 X64.8445 Y17.0630
G01 X64.9287 Y17.1135
G01 X64.9394 Y17.1196
G01 X64.9504 Y17.1251
G01 X65.0391 Y17.1670
G01 X65.0504 Y17.1720
G01 X65.0618 Y17.1765
G01 X65.1542 Y17.2095
G01 X65.1659 Y17.2134
G01 X65.1778 Y17.2167
G01 X65.2730 Y17.2405
G01 X65.2850 Y17.2432
G01 X65.2971 Y17.2453
G01 X65.3942 Y17.2597
G01 X65.4064 Y17.2612
G01 X65.4187 Y17.2621
G01 X65.5167 Y17.2669
G01 X65.5290 Y17.2672
G01 X65.5413 Y17.2669
G01 X65.6393 Y17.2621
G01 X65.6516 Y17.2612
G01 X65.6638 Y17.2597
G01 X65.7609 Y17.2453
G01 X65.7730 Y17.2432
G01 X65.7850 Y17.2405
G01 X65.8802 Y17.2167
G01 X65.8921 Y17.2134
G01 X65.9038 Y17.2095
G01 X65.9962 Y17.1765
G01 X66.0076 Y17.1720
G01 X66.0189 Y17.1670
G01 X66.1076 Y17.1251
G01 X66.1186 Y17.1196
G01 X66.1293 Y17.1135
G01 X66.2135 Y17.0630
G01 X66.2289 Y17.0530
G01 X66.3128 Y16.9909
G01 X66.3225 Y16.9833
G01 X66.3318 Y16.9753
G01 X66.4045 Y16.9094
G01 X66.4134 Y16.9009
G01 X66.4219 Y16.8920
G01 X66.4878 Y16.8193
G01 X66.4958 Y16.8100
G01 X66.5034 Y16.8003
G01 X66.5619 Y16.7214
G01 X66.5690 Y16.7114
G01 X66.5755 Y16.7010
G01 X66.6260 Y16.6168
G01 X66.6321 Y16.6061
G01 X66.6376 Y16.5951
G01 X66.6795 Y16.5064
G01 X66.6845 Y16.4951
G01 X66.6890 Y16.4837
G01 X66.7220 Y16.3913
G01 X66.7259 Y16.3796
G01 X66.7292 Y16.3677
G01 X66.7530 Y16.2725
G01 X66.7557 Y16.2605
G01 X66.7578 Y16.2484
G01 X66.7722 Y16.1513
G01 X66.7737 Y16.1391
G01 X66.7746 Y16.1268
G01 X66.7794 Y16.0288
G01 X66.7797 Y16.0165
G01 X66.7794 Y16.0042
G01 X66.7746 Y15.9062
G01 X66.7737 Y15.8939
G01 X66.7722 Y15.8817
G01 X66.7578 Y15.7846
G01 X66.7557 Y15.7725
G01 X66.7530 Y15.7605
G01 X66.7292 Y15.6653
G01 X66.7259 Y15.6534
G01 X66.7220 Y15.6417
G01 X66.6890 Y15.5493
G01 X66.6845 Y15.5379
G01 X66.6795 Y15.5266
G01 X66.6349 Y15.4324
G01 X66.6260 Y15.4162
G01 X66.5755 Y15.3320
G01 X66.5690 Y15.3216
G01 X66.5619 Y15.3116
G01 X66.5034 Y15.2327
G01 X66.4919 Y15.2183
G01 X66.4219 Y15.1410
G01 X66.4090 Y15.1278
G01 X66.3272 Y15.0536
G01 X66.3128 Y15.0421
G01 X66.2800 Y15.0178
G01 X66.2799 Y5.8503
G01 X66.2773 Y5.7952
G01 X66.2764 Y5.7829
G01 X66.2677 Y5.7221
G01 X66.2656 Y5.7100
G01 X66.2629 Y5.6980
G01 X66.2477 Y5.6385
G01 X66.2273 Y5.5806
G01 X66.2228 Y5.5691
G01 X66.1968 Y5.5135
G01 X66.1913 Y5.5025
G01 X66.1852 Y5.4918
G01 X66.1600 Y5.4497
G01 X66.1499 Y5.4342
G01 X66.1171 Y5.3898
G01 X66.1095 Y5.3801
G01 X66.0685 Y5.3344
G01 X66.0600 Y5.3255
G01 X63.5200 Y2.7855
G01 X63.5111 Y2.7770
G01 X63.4654 Y2.7360
G01 X63.4163 Y2.6992
G01 X63.4062 Y2.6921
G01 X63.3958 Y2.6855
G01 X63.3430 Y2.6542
G01 X63.3320 Y2.6487
G01 X63.2820 Y2.6251
G01 X63.2649 Y2.6182
G01 X63.2070 Y2.5978
G01 X63.1951 Y2.5946
G01 X63.1355 Y2.5799
G01 X63.0748 Y2.5706
G01 X63.0626 Y2.5691
G01 X63.0503 Y2.5682
G01 X62.9890 Y2.5655
G01 X57.3636 Y2.5655
G01 X57.3049 Y2.5123
G01 X57.2956 Y2.5043
G01 X57.2859 Y2.4967
G01 X57.2228 Y2.4499
G01 X57.2128 Y2.4428
G01 X57.2024 Y2.4363
G01 X57.1350 Y2.3959
G01 X57.1243 Y2.3898
G01 X57.1133 Y2.3843
G01 X57.0424 Y2.3507
G01 X57.0311 Y2.3457
G01 X57.0196 Y2.3413
G01 X56.9457 Y2.3149
G01 X56.9340 Y2.3110
G01 X56.9222 Y2.3077
G01 X56.8460 Y2.2886
G01 X56.8340 Y2.2859
G01 X56.8219 Y2.2838
G01 X56.7442 Y2.2723
G01 X56.7320 Y2.2708
G01 X56.7197 Y2.2699
G01 X56.6406 Y2.2660
G01 X54.6950 Y0.3204
G01 X54.6834 Y0.3049
G01 X54.6756 Y0.2954
G01 X54.6385 Y0.2544
G01 X54.6300 Y0.2455
G01 X54.6211 Y0.2370
G01 X54.5754 Y0.1960
G01 X54.5657 Y0.1884
G01 X54.5213 Y0.1556
G01 X54.5058 Y0.1455
G01 X54.4584 Y0.1172
G01 X54.4476 Y0.1114
G01 X54.4237 Y0.1000
G00 Z2.0000
G00 X11.6575 Y5.6923
G01 F60.00
G01 Z-0.1100
G01 F120.00
G01 X11.6602 Y5.7071
G01 X11.6689 Y5.7679
G01 X11.6722 Y5.8292
G01 X11.6725 Y5.8415
G01 X11.6722 Y5.8538
G01 X11.6694 Y5.9090
G01 X11.6674 Y5.9273
G01 X11.6581 Y5.9880
G01 X11.6434 Y6.0476
G01 X11.6402 Y6.0595
G01 X11.6363 Y6.0712
G01 X11.6153 Y6.1289
G01 X11.5893 Y6.1845
G01 X11.5838 Y6.1955
G01 X11.5525 Y6.2483
G01 X11.5459 Y6.2587
G01 X11.5096 Y6.3082
G01 X11.4981 Y6.3226
G01 X11.4610 Y6.3636
G01 X11.4525 Y6.3725
G01 X10.1825 Y7.6425
G01 X10.1372 Y7.6840
G01 X10.1279 Y7.6920
G01 X10.1182 Y7.6996
G01 X10.0687 Y7.7359
G01 X10.0162 Y7.7677
G01 X10.0001 Y7.7766
G01 X9.9445 Y7.8029
G01 X9.9274 Y7.8098
G01 X9.8695 Y7.8302
G01 X9.8576 Y7.8334
G01 X9.8040 Y7.8468
G01 X9.7859 Y7.8502
G01 X9.7251 Y7.8589
G01 X9.7128 Y7.8598
G01 X9.6515 Y7.8625
G01 X7.0922 Y7.8625
G01 X7.0922 Y8.0640
G01 X7.0919 Y8.0763
G01 X7.0910 Y8.0886
G01 X7.0895 Y8.1008
G01 X7.0874 Y8.1129
G01 X7.0847 Y8.1249
G01 X7.0814 Y8.1368
G01 X7.0776 Y8.1485
G01 X7.0732 Y8.1600
G01 X7.0682 Y8.1712
G01 X7.0626 Y8.1822
G01 X7.0566 Y8.1929
G01 X7.0465 Y8.2084
G01 X7.0353 Y8.2231
G01 X7.0231 Y8.2369
G01 X7.0099 Y8.2498
G01 X7.0006 Y8.2578
G01 X6.9859 Y8.2690
G01 X6.9756 Y8.2758
G01 X6.9597 Y8.2851
G01 X6.9431 Y8.2932
G01 X6.9260 Y8.3001
G01 X6.9143 Y8.3039
G01 X6.8964 Y8.3086
G01 X6.8783 Y8.3120
G01 X6.8661 Y8.3135
G01 X6.8477 Y8.3147
G01 X4.8415 Y8.3147
G01 X4.8292 Y8.3144
G01 X4.8169 Y8.3135
G01 X4.8047 Y8.3120
G01 X4.7926 Y8.3099
G01 X4.7746 Y8.3057
G01 X4.7628 Y8.3021
G01 X4.7513 Y8.2979
G01 X4.7399 Y8.2932
G01 X4.7288 Y8.2880
G01 X4.7126 Y8.2791
G01 X4.6971 Y8.2690
G01 X4.6872 Y8.2617
G01 X4.6777 Y8.2539
G01 X4.6642 Y8.2413
G01 X4.6557 Y8.2324
G01 X4.6477 Y8.2231
G01 X4.6365 Y8.2084
G01 X4.6297 Y8.1981
G01 X4.6204 Y8.1822
G01 X4.6148 Y8.1712
G01 X4.6076 Y8.1542
G01 X4.6034 Y8.1427
G01 X4.5998 Y8.1309
G01 X4.5969 Y8.1189
G01 X4.5945 Y8.1069
G01 X4.5920 Y8.0886
G01 X4.5911 Y8.0763
G01 X4.5908 Y8.0640
G01 X4.5908 Y7.8925
G01 X3.1297 Y7.8925
G01 X3.1297 Y7.9977
G01 X3.1285 Y8.0161
G01 X3.1260 Y8.0344
G01 X3.1236 Y8.0464
G01 X3.1207 Y8.0584
G01 X3.1171 Y8.0702
G01 X3.1129 Y8.0817
G01 X3.1057 Y8.0987
G01 X3.1001 Y8.1097
G01 X3.0941 Y8.1204
G01 X3.0875 Y8.1308
G01 X3.0804 Y8.1409
G01 X3.0689 Y8.1553
G01 X3.0563 Y8.1688
G01 X3.0474 Y8.1773
G01 X3.0333 Y8.1892
G01 X3.0234 Y8.1965
G01 X3.0131 Y8.2033
G01 X3.0026 Y8.2097
G01 X2.9917 Y8.2155
G01 X2.9806 Y8.2207
G01 X2.9635 Y8.2276
G01 X2.9518 Y8.2314
G01 X2.9399 Y8.2347
G01 X2.9219 Y8.2385
G01 X2.9036 Y8.2410
G01 X2.8913 Y8.2419
G01 X2.8790 Y8.2422
G01 X1.1790 Y8.2422
G01 X1.1667 Y8.2419
G01 X1.1544 Y8.2410
G01 X1.1361 Y8.2385
G01 X1.1241 Y8.2361
G01 X1.1121 Y8.2332
G01 X1.0945 Y8.2276
G01 X1.0774 Y8.2207
G01 X1.0608 Y8.2126
G01 X1.0501 Y8.2066
G01 X1.0397 Y8.2000
G01 X1.0247 Y8.1892
G01 X1.0106 Y8.1773
G01 X0.9974 Y8.1644
G01 X0.9891 Y8.1553
G01 X0.9813 Y8.1458
G01 X0.9705 Y8.1308
G01 X0.9608 Y8.1151
G01 X0.9523 Y8.0987
G01 X0.9451 Y8.0817
G01 X0.9391 Y8.0643
G01 X0.9344 Y8.0464
G01 X0.9310 Y8.0283
G01 X0.9295 Y8.0161
G01 X0.9286 Y8.0038
G01 X0.9283 Y7.9915
G01 X0.9283 Y6.2915
G01 X0.9286 Y6.2792
G01 X0.9295 Y6.2669
G01 X0.9320 Y6.2486
G01 X0.9358 Y6.2306
G01 X0.9409 Y6.2128
G01 X0.9451 Y6.2013
G01 X0.9498 Y6.1899
G01 X0.9550 Y6.1788
G01 X0.9608 Y6.1679
G01 X0.9705 Y6.1522
G01 X0.9813 Y6.1372
G01 X0.9932 Y6.1231
G01 X1.0061 Y6.1099
G01 X1.0152 Y6.1016
G01 X1.0247 Y6.0938
G01 X1.0397 Y6.0830
G01 X1.0554 Y6.0733
G01 X1.0718 Y6.0648
G01 X1.0888 Y6.0576
G01 X1.1003 Y6.0534
G01 X1.1121 Y6.0498
G01 X1.1301 Y6.0456
G01 X1.1422 Y6.0435
G01 X1.1544 Y6.0420
G01 X1.1667 Y6.0411
G01 X1.1790 Y6.0408
G01 X2.8790 Y6.0408
G01 X2.8913 Y6.0411
G01 X2.9036 Y6.0420
G01 X2.9219 Y6.0445
G01 X2.9339 Y6.0469
G01 X2.9459 Y6.0498
G01 X2.9577 Y6.0534
G01 X2.9692 Y6.0576
G01 X2.9806 Y6.0623
G01 X2.9972 Y6.0704
G01 X3.0079 Y6.0764
G01 X3.0183 Y6.0830
G01 X3.0284 Y6.0901
G01 X3.0428 Y6.1016
G01 X3.0519 Y6.1099
G01 X3.0606 Y6.1186
G01 X3.0728 Y6.1324
G01 X3.0804 Y6.1421
G01 X3.0908 Y6.1574
G01 X3.0972 Y6.1679
G01 X3.1030 Y6.1788
G01 X3.1082 Y6.1899
G01 X3.1129 Y6.2013
G01 X3.1171 Y6.2128
G01 X3.1207 Y6.2246
G01 X3.1236 Y6.2366
G01 X3.1260 Y6.2486
G01 X3.1285 Y6.2669
G01 X3.1297 Y6.2853
G01 X3.1297 Y6.3905
G01 X4.5908 Y6.3905
G01 X4.5908 Y6.1590
G01 X4.5911 Y6.1467
G01 X4.5920 Y6.1344
G01 X4.5935 Y6.1222
G01 X4.5969 Y6.1041
G01 X4.6016 Y6.0862
G01 X4.6054 Y6.0745
G01 X4.6098 Y6.0630
G01 X4.6148 Y6.0518
G01 X4.6233 Y6.0354
G01 X4.6297 Y6.0249
G01 X4.6401 Y6.0096
G01 X4.6477 Y5.9999
G01 X4.6557 Y5.9906
G01 X4.6642 Y5.9817
G01 X4.6777 Y5.9691
G01 X4.6872 Y5.9613
G01 X4.7022 Y5.9505
G01 X4.7179 Y5.9408
G01 X4.7288 Y5.9350
G01 X4.7399 Y5.9298
G01 X4.7570 Y5.9229
G01 X4.7687 Y5.9191
G01 X4.7866 Y5.9144
G01 X4.7986 Y5.9120
G01 X4.8108 Y5.9101
G01 X4.8292 Y5.9086
G01 X4.8415 Y5.9083
G01 X6.8415 Y5.9083
G01 X6.8538 Y5.9086
G01 X6.8722 Y5.9101
G01 X6.8844 Y5.9120
G01 X6.9024 Y5.9158
G01 X6.9143 Y5.9191
G01 X6.9317 Y5.9251
G01 X6.9487 Y5.9323
G01 X6.9651 Y5.9408
G01 X6.9756 Y5.9472
G01 X6.9859 Y5.9540
G01 X7.0006 Y5.9652
G01 X7.0099 Y5.9732
G01 X7.0231 Y5.9861
G01 X7.0314 Y5.9952
G01 X7.0429 Y6.0096
G01 X7.0533 Y6.0249
G01 X7.0626 Y6.0408
G01 X7.0682 Y6.0518
G01 X7.0732 Y6.0630
G01 X7.0776 Y6.0745
G01 X7.0814 Y6.0862
G01 X7.0847 Y6.0981
G01 X7.0874 Y6.1101
G01 X7.0895 Y6.1222
G01 X7.0910 Y6.1344
G01 X7.0919 Y6.1467
G01 X7.0922 Y6.1590
G01 X7.0922 Y6.3605
G01 X9.3404 Y6.3605
G01 X10.1555 Y5.5454
G01 X10.1555 Y3.1322
G01 X10.0503 Y3.1322
G01 X10.0319 Y3.1310
G01 X10.0197 Y3.1295
G01 X10.0076 Y3.1274
G01 X9.9956 Y3.1247
G01 X9.9778 Y3.1196
G01 X9.9663 Y3.1154
G01 X9.9549 Y3.1107
G01 X9.9438 Y3.1055
G01 X9.9329 Y3.0997
G01 X9.9224 Y3.0933
G01 X9.9121 Y3.0865
G01 X9.9022 Y3.0792
G01 X9.8881 Y3.0673
G01 X9.8792 Y3.0588
G01 X9.8666 Y3.0453
G01 X9.8588 Y3.0358
G01 X9.8515 Y3.0259
G01 X9.8447 Y3.0156
G01 X9.8354 Y2.9997
G01 X9.8273 Y2.9831
G01 X9.8226 Y2.9717
G01 X9.8166 Y2.9543
G01 X9.8133 Y2.9424
G01 X9.8106 Y2.9304
G01 X9.8076 Y2.9122
G01 X9.8064 Y2.8999
G01 X9.8058 Y2.8877
G01 X9.8058 Y1.1815
G01 X9.8061 Y1.1692
G01 X9.8070 Y1.1569
G01 X9.8095 Y1.1386
G01 X9.8119 Y1.1266
G01 X9.8148 Y1.1146
G01 X9.8204 Y1.0970
G01 X9.8273 Y1.0799
G01 X9.8354 Y1.0633
G01 X9.8447 Y1.0474
G01 X9.8551 Y1.0321
G01 X9.8627 Y1.0224
G01 X9.8707 Y1.0131
G01 X9.8792 Y1.0042
G01 X9.8881 Y0.9957
G01 X9.9022 Y0.9838
G01 X9.9172 Y0.9730
G01 X9.9329 Y0.9633
G01 X9.9493 Y0.9548
G01 X9.9663 Y0.9476
G01 X9.9837 Y0.9416
G01 X9.9956 Y0.9383
G01 X10.0076 Y0.9356
G01 X10.0197 Y0.9335
G01 X10.0319 Y0.9320
G01 X10.0442 Y0.9311
G01 X10.0565 Y0.9308
G01 X11.7565 Y0.9308
G01 X11.7749 Y0.9314
G01 X11.7872 Y0.9326
G01 X11.7994 Y0.9345
G01 X11.8174 Y0.9383
G01 X11.8293 Y0.9416
G01 X11.8410 Y0.9454
G01 X11.8525 Y0.9498
G01 X11.8637 Y0.9548
G01 X11.8747 Y0.9604
G01 X11.8854 Y0.9664
G01 X11.9009 Y0.9765
G01 X11.9108 Y0.9838
G01 X11.9249 Y0.9957
G01 X11.9338 Y1.0042
G01 X11.9423 Y1.0131
G01 X11.9542 Y1.0272
G01 X11.9615 Y1.0371
G01 X11.9683 Y1.0474
G01 X11.9747 Y1.0579
G01 X11.9805 Y1.0688
G01 X11.9857 Y1.0799
G01 X11.9926 Y1.0970
G01 X11.9964 Y1.1087
G01 X11.9997 Y1.1206
G01 X12.0024 Y1.1326
G01 X12.0045 Y1.1447
G01 X12.0060 Y1.1569
G01 X12.0072 Y1.1753
G01 X12.0072 Y1.2955
G01 X41.0879 Y1.2955
G01 X42.1424 Y0.2412
G01 X42.1833 Y0.2040
G01 X42.1926 Y0.1960
G01 X42.2023 Y0.1884
G01 X42.2467 Y0.1556
G01 X42.2622 Y0.1455
G01 X42.3096 Y0.1172
G01 X42.3204 Y0.1114
G01 X42.3443 Y0.1000
G00 Z2.0000
G00 X42.0868 Y0.1000
G01 F60.00
G01 Z-0.1100
G01 F120.00
G01 X42.0888 Y0.1144
G01 X42.0903 Y0.1330
G01 X42.0904 Y0.1517
G01 X42.0897 Y0.1641
G01 X42.0875 Y0.1827
G01 X42.0853 Y0.1949
G01 X42.0808 Y0.2131
G01 X42.0750 Y0.2308
G01 X42.0679 Y0.2481
G01 X42.0384 Y0.3127
G01 X42.0330 Y0.3238
G01 X42.0270 Y0.3347
G01 X42.0170 Y0.3504
G01 X42.0060 Y0.3653
G01 X41.9980 Y0.3748
G01 X41.9815 Y0.3924
G01 X41.1955 Y1.1784
G01 X41.1824 Y1.1906
G01 X41.1732 Y1.1982
G01 X41.1636 Y1.2053
G01 X41.1537 Y1.2120
G01 X41.1435 Y1.2182
G01 X41.0706 Y1.2581
G01 X41.0595 Y1.2634
G01 X41.0482 Y1.2682
G01 X41.0366 Y1.2725
G01 X41.0249 Y1.2762
G01 X41.0130 Y1.2793
G01 X41.0009 Y1.2818
G01 X40.9888 Y1.2837
G01 X40.9559 Y1.2873
G01 X40.9358 Y1.2886
G01 X12.3331 Y1.2887
G01 X12.3212 Y1.2885
G01 X12.3093 Y1.2876
G01 X12.2916 Y1.2853
G01 X12.2798 Y1.2830
G01 X12.2625 Y1.2786
G01 X12.1884 Y1.2568
G01 X12.1709 Y1.2504
G01 X12.1538 Y1.2427
G01 X12.1374 Y1.2338
G01 X12.1217 Y1.2237
G01 X12.1117 Y1.2164
G01 X12.1020 Y1.2085
G01 X12.0927 Y1.2002
G01 X12.0839 Y1.1914
G01 X12.0755 Y1.1822
G01 X12.0290 Y1.1285
G01 X12.0212 Y1.1190
G01 X12.0103 Y1.1040
G01 X12.0005 Y1.0882
G01 X11.9920 Y1.0718
G01 X11.9857 Y1.0574
G01 X11.9407 Y0.9973
G01 X11.8816 Y0.9531
G01 X11.8084 Y0.9256
G01 X11.7911 Y0.9237
G01 X10.0219 Y0.9237
G01 X10.0046 Y0.9256
G01 X9.9314 Y0.9531
G01 X9.8723 Y0.9973
G01 X9.8281 Y1.0564
G01 X9.7965 Y1.1407
G01 X9.7920 Y1.1517
G01 X9.7844 Y1.1679
G01 X9.7786 Y1.1784
G01 X9.7724 Y1.1886
G01 X9.7622 Y1.2033
G01 X9.7195 Y1.2600
G01 X9.7118 Y1.2698
G01 X9.7036 Y1.2792
G01 X9.6950 Y1.2881
G01 X9.6859 Y1.2966
G01 X9.6764 Y1.3047
G01 X9.6665 Y1.3122
G01 X9.6510 Y1.3227
G01 X9.6402 Y1.3289
G01 X9.6235 Y1.3373
G01 X9.6063 Y1.3445
G01 X9.5339 Y1.3713
G01 X9.5220 Y1.3750
G01 X9.5099 Y1.3782
G01 X9.4916 Y1.3818
G01 X9.4793 Y1.3834
G01 X9.4669 Y1.3844
G01 X9.4482 Y1.3848
G01 X9.4357 Y1.3843
G01 X9.4233 Y1.3832
G01 X9.4049 Y1.3803
G01 X9.3294 Y1.3638
G01 X9.3176 Y1.3609
G01 X9.3001 Y1.3555
G01 X9.2886 Y1.3511
G01 X9.2719 Y1.3436
G01 X9.2558 Y1.3349
G01 X9.2454 Y1.3284
G01 X9.2304 Y1.3178
G01 X9.1861 Y1.2820
G01 X9.1766 Y1.2735
G01 X9.1675 Y1.2645
G01 X9.1439 Y1.2377
G01 X9.0038 Y1.1214
G01 X8.8712 Y1.0439
G01 X8.8712 Y1.0537
G01 X8.8908 Y1.0637
G01 X8.9729 Y1.1129
G01 X8.9881 Y1.1234
G01 X9.0551 Y1.1730
G01 X9.0648 Y1.1806
G01 X9.0741 Y1.1887
G01 X9.1359 Y1.2447
G01 X9.1448 Y1.2532
G01 X9.1533 Y1.2621
G01 X9.2093 Y1.3239
G01 X9.2174 Y1.3332
G01 X9.2250 Y1.3429
G01 X9.2746 Y1.4099
G01 X9.2817 Y1.4200
G01 X9.2883 Y1.4304
G01 X9.3312 Y1.5019
G01 X9.3373 Y1.5126
G01 X9.3428 Y1.5236
G01 X9.3785 Y1.5990
G01 X9.3835 Y1.6103
G01 X9.3879 Y1.6217
G01 X9.4160 Y1.7003
G01 X9.4198 Y1.7120
G01 X9.4231 Y1.7238
G01 X9.4434 Y1.8047
G01 X9.4461 Y1.8168
G01 X9.4482 Y1.8289
G01 X9.4604 Y1.9114
G01 X9.4619 Y1.9236
G01 X9.4628 Y1.9359
G01 X9.4669 Y2.0192
G01 X9.4672 Y2.0315
G01 X9.4669 Y2.0438
G01 X9.4628 Y2.1271
G01 X9.4619 Y2.1394
G01 X9.4604 Y2.1516
G01 X9.4482 Y2.2341
G01 X9.4461 Y2.2462
G01 X9.4434 Y2.2583
G01 X9.4231 Y2.3392
G01 X9.4198 Y2.3510
G01 X9.4160 Y2.3627
G01 X9.3879 Y2.4413
G01 X9.3835 Y2.4527
G01 X9.3785 Y2.4640
G01 X9.3428 Y2.5394
G01 X9.3373 Y2.5504
G01 X9.3312 Y2.5611
G01 X9.2883 Y2.6326
G01 X9.2817 Y2.6430
G01 X9.2746 Y2.6531
G01 X9.2250 Y2.7201
G01 X9.2134 Y2.7345
G01 X9.1491 Y2.8054
G01 X9.1404 Y2.8141
G01 X9.1175 Y2.8350
G01 X9.1175 Y2.8484
G01 X9.1792 Y2.7843
G01 X9.1926 Y2.7724
G01 X9.2068 Y2.7615
G01 X9.2167 Y2.7548
G01 X9.2269 Y2.7486
G01 X9.2884 Y2.7132
G01 X9.2994 Y2.7073
G01 X9.3106 Y2.7019
G01 X9.3221 Y2.6970
G01 X9.3338 Y2.6928
G01 X9.3457 Y2.6891
G01 X9.3577 Y2.6860
G01 X9.3761 Y2.6826
G01 X9.3946 Y2.6805
G01 X9.4071 Y2.6798
G01 X9.4258 Y2.6800
G01 X9.4967 Y2.6835
G01 X9.5091 Y2.6844
G01 X9.5214 Y2.6859
G01 X9.5337 Y2.6881
G01 X9.5459 Y2.6908
G01 X9.5579 Y2.6942
G01 X9.5697 Y2.6981
G01 X9.5813 Y2.7026
G01 X9.5926 Y2.7077
G01 X9.6037 Y2.7134
G01 X9.6145 Y2.7196
G01 X9.6250 Y2.7263
G01 X9.6879 Y2.7711
G01 X9.6977 Y2.7784
G01 X9.7071 Y2.7863
G01 X9.7205 Y2.7988
G01 X9.7288 Y2.8077
G01 X9.7406 Y2.8218
G01 X9.7513 Y2.8367
G01 X9.7578 Y2.8471
G01 X9.7797 Y2.8859
G01 X9.7885 Y2.9030
G01 X9.7959 Y2.9207
G01 X9.8281 Y3.0066
G01 X9.8723 Y3.0657
G01 X9.9387 Y3.1154
G01 X9.9519 Y3.1227
G01 X9.9626 Y3.1293
G01 X9.9729 Y3.1363
G01 X9.9828 Y3.1439
G01 X10.0298 Y3.1815
G01 X10.0437 Y3.1935
G01 X10.0568 Y3.2066
G01 X10.0649 Y3.2158
G01 X10.0726 Y3.2254
G01 X10.0832 Y3.2405
G01 X10.0927 Y3.2564
G01 X10.1010 Y3.2729
G01 X10.1059 Y3.2842
G01 X10.1328 Y3.3565
G01 X10.1368 Y3.3682
G01 X10.1402 Y3.3800
G01 X10.1431 Y3.3921
G01 X10.1453 Y3.4042
G01 X10.1469 Y3.4165
G01 X10.1480 Y3.4288
G01 X10.1487 Y3.4525
G01 X10.1487 Y5.3866
G01 X10.1485 Y5.3985
G01 X10.1470 Y5.4163
G01 X10.1442 Y5.4340
G01 X10.1402 Y5.4515
G01 X10.1168 Y5.5312
G01 X10.1105 Y5.5486
G01 X10.1030 Y5.5654
G01 X10.0973 Y5.5763
G01 X10.0910 Y5.5869
G01 X10.0807 Y5.6023
G01 X10.0563 Y5.6330
G01 X10.0476 Y5.6432
G01 X10.0384 Y5.6530
G01 X9.4480 Y6.2434
G01 X9.4349 Y6.2556
G01 X9.4257 Y6.2632
G01 X9.4161 Y6.2703
G01 X9.4062 Y6.2770
G01 X9.3908 Y6.2862
G01 X9.3231 Y6.3231
G01 X9.3064 Y6.3309
G01 X9.2891 Y6.3375
G01 X9.2774 Y6.3412
G01 X9.2655 Y6.3443
G01 X9.2474 Y6.3478
G01 X9.2084 Y6.3523
G01 X9.1883 Y6.3536
G01 X7.4509 Y6.3537
G01 X7.4330 Y6.3531
G01 X7.4153 Y6.3512
G01 X7.3976 Y6.3480
G01 X7.3803 Y6.3436
G01 X7.3062 Y6.3218
G01 X7.2887 Y6.3154
G01 X7.2772 Y6.3104
G01 X7.2661 Y6.3049
G01 X7.2499 Y6.2956
G01 X7.2344 Y6.2851
G01 X7.2198 Y6.2735
G01 X7.2061 Y6.2608
G01 X7.1933 Y6.2472
G01 X7.1428 Y6.1888
G01 X7.1352 Y6.1791
G01 X7.1247 Y6.1638
G01 X7.1183 Y6.1532
G01 X7.1125 Y6.1423
G01 X7.1047 Y6.1255
G01 X7.0982 Y6.1092
G01 X7.0699 Y6.0339
G01 X7.0257 Y5.9748
G01 X6.9666 Y5.9306
G01 X6.8934 Y5.9031
G01 X6.8761 Y5.9012
G01 X4.8069 Y5.9012
G01 X4.7896 Y5.9031
G01 X4.7164 Y5.9306
G01 X4.6573 Y5.9748
G01 X4.6131 Y6.0339
G01 X4.5723 Y6.1424
G01 X4.5648 Y6.1593
G01 X4.5560 Y6.1755
G01 X4.5461 Y6.1911
G01 X4.5368 Y6.2037
G01 X4.5231 Y6.2275
G01 X4.5164 Y6.2380
G01 X4.5092 Y6.2481
G01 X4.5015 Y6.2579
G01 X4.4933 Y6.2673
G01 X4.4802 Y6.2806
G01 X4.4709 Y6.2889
G01 X4.4612 Y6.2967
G01 X4.4511 Y6.3040
G01 X4.4407 Y6.3109
G01 X4.4300 Y6.3172
G01 X4.3615 Y6.3529
G01 X4.3508 Y6.3582
G01 X4.3397 Y6.3630
G01 X4.3285 Y6.3672
G01 X4.3171 Y6.3709
G01 X4.3055 Y6.3741
G01 X4.2938 Y6.3767
G01 X4.2760 Y6.3795
G01 X4.2334 Y6.3834
G01 X4.2212 Y6.3837
G01 X3.4500 Y6.3837
G01 X3.4321 Y6.3831
G01 X3.4143 Y6.3812
G01 X3.3967 Y6.3780
G01 X3.3851 Y6.3752
G01 X3.3112 Y6.3536
G01 X3.2994 Y6.3498
G01 X3.2877 Y6.3454
G01 X3.2707 Y6.3377
G01 X3.2597 Y6.3319
G01 X3.2437 Y6.3222
G01 X3.2335 Y6.3151
G01 X3.2236 Y6.3075
G01 X3.2142 Y6.2994
G01 X3.2008 Y6.2864
G01 X3.1924 Y6.2772
G01 X3.1419 Y6.2188
G01 X3.1343 Y6.2091
G01 X3.1238 Y6.1938
G01 X3.1174 Y6.1832
G01 X3.1110 Y6.1712
G01 X3.0632 Y6.1073
G01 X3.0041 Y6.0631
G01 X2.9309 Y6.0356
G01 X2.9136 Y6.0337
G01 X1.1444 Y6.0337
G01 X1.1271 Y6.0356
G01 X1.0539 Y6.0631
G01 X0.9948 Y6.1073
G01 X0.9506 Y6.1664
G01 X0.9231 Y6.2396
G01 X0.9212 Y6.2569
G01 X0.9212 Y8.0261
G01 X0.9231 Y8.0434
G01 X0.9506 Y8.1166
G01 X0.9948 Y8.1757
G01 X1.0539 Y8.2199
G01 X1.1393 Y8.2519
G01 X1.1504 Y8.2564
G01 X1.1612 Y8.2614
G01 X1.1718 Y8.2669
G01 X1.1872 Y8.2760
G01 X1.2019 Y8.2863
G01 X1.2587 Y8.3289
G01 X1.2684 Y8.3366
G01 X1.2778 Y8.3448
G01 X1.2868 Y8.3535
G01 X1.2994 Y8.3673
G01 X1.3072 Y8.3770
G01 X1.3145 Y8.3870
G01 X1.3245 Y8.4028
G01 X1.3333 Y8.4193
G01 X1.3385 Y8.4306
G01 X1.3432 Y8.4421
G01 X1.3679 Y8.5087
G01 X1.3737 Y8.5264
G01 X1.3782 Y8.5446
G01 X1.3804 Y8.5568
G01 X1.3827 Y8.5754
G01 X1.3834 Y8.5878
G01 X1.3835 Y8.6002
G01 X1.3830 Y8.6127
G01 X1.3818 Y8.6251
G01 X1.3801 Y8.6374
G01 X1.3777 Y8.6496
G01 X1.3611 Y8.7251
G01 X1.3577 Y8.7373
G01 X1.3516 Y8.7553
G01 X1.3441 Y8.7727
G01 X1.3354 Y8.7895
G01 X1.3288 Y8.8003
G01 X1.3218 Y8.8108
G01 X1.2965 Y8.8446
G01 X1.2852 Y8.8585
G01 X1.2730 Y8.8716
G01 X1.1829 Y8.9614
G01 X1.0766 Y9.1093
G01 X1.0433 Y9.1768
G01 X1.0512 Y9.1768
G01 X1.0612 Y9.1572
G01 X1.1104 Y9.0751
G01 X1.1209 Y9.0599
G01 X1.1705 Y8.9929
G01 X1.1781 Y8.9832
G01 X1.1862 Y8.9739
G01 X1.2422 Y8.9121
G01 X1.2507 Y8.9032
G01 X1.2596 Y8.8947
G01 X1.3214 Y8.8387
G01 X1.3307 Y8.8306
G01 X1.3404 Y8.8230
G01 X1.4074 Y8.7734
G01 X1.4175 Y8.7663
G01 X1.4279 Y8.7597
G01 X1.4994 Y8.7168
G01 X1.5101 Y8.7107
G01 X1.5211 Y8.7052
G01 X1.5965 Y8.6695
G01 X1.6078 Y8.6645
G01 X1.6192 Y8.6601
G01 X1.6978 Y8.6320
G01 X1.7095 Y8.6282
G01 X1.7213 Y8.6249
G01 X1.8022 Y8.6046
G01 X1.8143 Y8.6019
G01 X1.8264 Y8.5998
G01 X1.9089 Y8.5876
G01 X1.9211 Y8.5861
G01 X1.9334 Y8.5852
G01 X2.0167 Y8.5811
G01 X2.0290 Y8.5808
G01 X2.0413 Y8.5811
G01 X2.1246 Y8.5852
G01 X2.1369 Y8.5861
G01 X2.1491 Y8.5876
G01 X2.2316 Y8.5998
G01 X2.2437 Y8.6019
G01 X2.2558 Y8.6046
G01 X2.3367 Y8.6249
G01 X2.3485 Y8.6282
G01 X2.3602 Y8.6320
G01 X2.4388 Y8.6601
G01 X2.4502 Y8.6645
G01 X2.4615 Y8.6695
G01 X2.5369 Y8.7052
G01 X2.5479 Y8.7107
G01 X2.5586 Y8.7168
G01 X2.6301 Y8.7597
G01 X2.6405 Y8.7663
G01 X2.6506 Y8.7734
G01 X2.7176 Y8.8230
G01 X2.7320 Y8.8346
G01 X2.8029 Y8.8989
G01 X2.8116 Y8.9076
G01 X2.8325 Y8.9305
G01 X2.8435 Y8.9305
G01 X2.8055 Y8.8866
G01 X2.7957 Y8.8773
G01 X2.7835 Y8.8642
G01 X2.7760 Y8.8550
G01 X2.7654 Y8.8405
G01 X2.7258 Y8.7816
G01 X2.7160 Y8.7657
G01 X2.7073 Y8.7492
G01 X2.7023 Y8.7378
G01 X2.6978 Y8.7262
G01 X2.6922 Y8.7084
G01 X2.6891 Y8.6963
G01 X2.6867 Y8.6841
G01 X2.6849 Y8.6717
G01 X2.6837 Y8.6593
G01 X2.6832 Y8.6469
G01 X2.6817 Y8.5759
G01 X2.6817 Y8.5635
G01 X2.6824 Y8.5510
G01 X2.6837 Y8.5386
G01 X2.6856 Y8.5263
G01 X2.6881 Y8.5141
G01 X2.6929 Y8.4961
G01 X2.6969 Y8.4843
G01 X2.7015 Y8.4727
G01 X2.7067 Y8.4614
G01 X2.7154 Y8.4449
G01 X2.7557 Y8.3790
G01 X2.7625 Y8.3685
G01 X2.7698 Y8.3584
G01 X2.7817 Y8.3439
G01 X2.7903 Y8.3347
G01 X2.8039 Y8.3218
G01 X2.8184 Y8.3100
G01 X2.8286 Y8.3027
G01 X2.8391 Y8.2959
G01 X2.8844 Y8.2684
G01 X2.9000 Y8.2601
G01 X2.9108 Y8.2552
G01 X2.9217 Y8.2508
G01 X3.0041 Y8.2199
G01 X3.0632 Y8.1757
G01 X3.1129 Y8.1093
G01 X3.1202 Y8.0961
G01 X3.1268 Y8.0854
G01 X3.1338 Y8.0751
G01 X3.1414 Y8.0652
G01 X3.1790 Y8.0182
G01 X3.1910 Y8.0043
G01 X3.1996 Y7.9955
G01 X3.2087 Y7.9871
G01 X3.2229 Y7.9754
G01 X3.2329 Y7.9682
G01 X3.2432 Y7.9615
G01 X3.2593 Y7.9524
G01 X3.2704 Y7.9470
G01 X3.2874 Y7.9399
G01 X3.3540 Y7.9152
G01 X3.3657 Y7.9112
G01 X3.3775 Y7.9078
G01 X3.3956 Y7.9037
G01 X3.4140 Y7.9011
G01 X3.4325 Y7.8997
G01 X3.4500 Y7.8993
G01 X4.2433 Y7.8993
G01 X4.2612 Y7.8999
G01 X4.2790 Y7.9018
G01 X4.2908 Y7.9038
G01 X4.3024 Y7.9063
G01 X4.3821 Y7.9294
G01 X4.3939 Y7.9332
G01 X4.4113 Y7.9400
G01 X4.4282 Y7.9481
G01 X4.4444 Y7.9574
G01 X4.4598 Y7.9679
G01 X4.4697 Y7.9755
G01 X4.4791 Y7.9836
G01 X4.4882 Y7.9922
G01 X4.4968 Y8.0011
G01 X4.5474 Y8.0595
G01 X4.5553 Y8.0690
G01 X4.5627 Y8.0789
G01 X4.5696 Y8.0892
G01 X4.5759 Y8.0998
G01 X4.5818 Y8.1107
G01 X4.5871 Y8.1218
G01 X4.5961 Y8.1438
G01 X4.6131 Y8.1891
G01 X4.6573 Y8.2482
G01 X4.7179 Y8.2935
G01 X4.7305 Y8.2996
G01 X4.7409 Y8.3053
G01 X4.7511 Y8.3116
G01 X4.7610 Y8.3183
G01 X4.8225 Y8.3644
G01 X4.8323 Y8.3722
G01 X4.8417 Y8.3804
G01 X4.8506 Y8.3890
G01 X4.8632 Y8.4028
G01 X4.8711 Y8.4125
G01 X4.8818 Y8.4277
G01 X4.8884 Y8.4383
G01 X4.8944 Y8.4492
G01 X4.9024 Y8.4661
G01 X4.9070 Y8.4777
G01 X4.9338 Y8.5501
G01 X4.9392 Y8.5680
G01 X4.9433 Y8.5862
G01 X4.9452 Y8.5985
G01 X4.9465 Y8.6109
G01 X4.9473 Y8.6233
G01 X4.9473 Y8.6358
G01 X4.9463 Y8.6544
G01 X4.9449 Y8.6668
G01 X4.9428 Y8.6791
G01 X4.9264 Y8.7545
G01 X4.9234 Y8.7665
G01 X4.9179 Y8.7842
G01 X4.9135 Y8.7957
G01 X4.9086 Y8.8070
G01 X4.9031 Y8.8181
G01 X4.8970 Y8.8288
G01 X4.8749 Y8.8625
G01 X4.8666 Y8.8737
G01 X4.8218 Y8.9305
G01 X4.8321 Y8.9305
G01 X4.8563 Y8.8979
G01 X4.8678 Y8.8835
G01 X4.9389 Y8.8051
G01 X4.9521 Y8.7922
G01 X5.0214 Y8.7294
G01 X5.0307 Y8.7214
G01 X5.0404 Y8.7138
G01 X5.1155 Y8.6581
G01 X5.1255 Y8.6510
G01 X5.1359 Y8.6445
G01 X5.2161 Y8.5964
G01 X5.2323 Y8.5875
G01 X5.3223 Y8.5448
G01 X5.3335 Y8.5399
G01 X5.3450 Y8.5354
G01 X5.4330 Y8.5039
G01 X5.4447 Y8.5001
G01 X5.4566 Y8.4968
G01 X5.5473 Y8.4741
G01 X5.5593 Y8.4714
G01 X5.5714 Y8.4693
G01 X5.6638 Y8.4556
G01 X5.6761 Y8.4541
G01 X5.6883 Y8.4531
G01 X5.7817 Y8.4486
G01 X5.7940 Y8.4483
G01 X5.8952 Y8.4483
G01 X6.0008 Y8.4535
G01 X6.0192 Y8.4556
G01 X6.1177 Y8.4703
G01 X6.1357 Y8.4741
G01 X6.2264 Y8.4968
G01 X6.2383 Y8.5001
G01 X6.2500 Y8.5039
G01 X6.3380 Y8.5354
G01 X6.3551 Y8.5423
G01 X6.4452 Y8.5848
G01 X6.4562 Y8.5903
G01 X6.4669 Y8.5964
G01 X6.5471 Y8.6445
G01 X6.5575 Y8.6510
G01 X6.5675 Y8.6581
G01 X6.6475 Y8.7175
G01 X6.6616 Y8.7294
G01 X6.7309 Y8.7922
G01 X6.7441 Y8.8051
G01 X6.8152 Y8.8835
G01 X6.8267 Y8.8979
G01 X6.8509 Y8.9305
G01 X6.8606 Y8.9305
G01 X6.8086 Y8.8611
G01 X6.7987 Y8.8462
G01 X6.7899 Y8.8306
G01 X6.7847 Y8.8199
G01 X6.7800 Y8.8089
G01 X6.7529 Y8.7369
G01 X6.7470 Y8.7192
G01 X6.7424 Y8.7010
G01 X6.7392 Y8.6826
G01 X6.7374 Y8.6641
G01 X6.7370 Y8.6516
G01 X6.7371 Y8.6392
G01 X6.7386 Y8.6205
G01 X6.7414 Y8.6021
G01 X6.7576 Y8.5266
G01 X6.7622 Y8.5085
G01 X6.7682 Y8.4908
G01 X6.7754 Y8.4736
G01 X6.7840 Y8.4569
G01 X6.7937 Y8.4410
G01 X6.8046 Y8.4258
G01 X6.8124 Y8.4162
G01 X6.8208 Y8.4069
G01 X6.8795 Y8.3480
G01 X6.8883 Y8.3400
G01 X6.8975 Y8.3324
G01 X6.9120 Y8.3218
G01 X6.9220 Y8.3153
G01 X6.9376 Y8.3066
G01 X6.9648 Y8.2938
G01 X7.0257 Y8.2482
G01 X7.0699 Y8.1891
G01 X7.1026 Y8.1027
G01 X7.1076 Y8.0918
G01 X7.1160 Y8.0760
G01 X7.1222 Y8.0659
G01 X7.1290 Y8.0560
G01 X7.1789 Y7.9895
G01 X7.1869 Y7.9799
G01 X7.1953 Y7.9707
G01 X7.2088 Y7.9578
G01 X7.2232 Y7.9459
G01 X7.2384 Y7.9351
G01 X7.2544 Y7.9255
G01 X7.2711 Y7.9171
G01 X7.2826 Y7.9122
G01 X7.3549 Y7.8852
G01 X7.3666 Y7.8812
G01 X7.3845 Y7.8763
G01 X7.4027 Y7.8727
G01 X7.4149 Y7.8710
G01 X7.4334 Y7.8697
G01 X7.4509 Y7.8693
G01 X9.5897 Y7.8693
G01 X9.6168 Y7.8704
G01 X9.6435 Y7.8729
G01 X9.6860 Y7.8696
G01 X9.7956 Y7.8596
G01 X9.8672 Y7.8380
G01 X9.9381 Y7.8174
G01 X10.0042 Y7.7823
G01 X10.0698 Y7.7482
G01 X10.1269 Y7.7016
G01 X10.1598 Y7.6754
G01 X10.1880 Y7.6518
G01 X10.2054 Y7.6309
G01 X10.2255 Y7.6092
G01 X11.4150 Y6.4197
G01 X11.4392 Y6.3975
G01 X11.4561 Y6.3837
G01 X11.4813 Y6.3539
G01 X11.5530 Y6.2674
G01 X11.5879 Y6.2023
G01 X11.6237 Y6.1367
G01 X11.6453 Y6.0661
G01 X11.6676 Y5.9947
G01 X11.6751 Y5.9210
G01 X11.6832 Y5.8468
G01 X11.6762 Y5.7724
G01 X11.6689 Y5.6900
G01 X11.6666 Y5.6719
G01 X11.6646 Y5.6463
G01 X11.6643 Y5.6327
G01 X11.6643 Y3.8164
G01 X11.6645 Y3.8045
G01 X11.6660 Y3.7867
G01 X11.6677 Y3.7748
G01 X11.6700 Y3.7631
G01 X11.6744 Y3.7458
G01 X11.6962 Y3.6718
G01 X11.7003 Y3.6602
G01 X11.7074 Y3.6431
G01 X11.7157 Y3.6267
G01 X11.7220 Y3.6161
G01 X11.7287 Y3.6058
G01 X11.7360 Y3.5958
G01 X11.7609 Y3.5648
G01 X11.7699 Y3.5548
G01 X12.4143 Y2.9104
G01 X12.4231 Y2.9024
G01 X12.4323 Y2.8948
G01 X12.4419 Y2.8877
G01 X12.4518 Y2.8810
G01 X12.4672 Y2.8718
G01 X12.5349 Y2.8349
G01 X12.5516 Y2.8271
G01 X12.5631 Y2.8226
G01 X12.5747 Y2.8186
G01 X12.5925 Y2.8137
G01 X12.6106 Y2.8102
G01 X12.6563 Y2.8051
G01 X12.6764 Y2.8043
G01 X41.2060 Y2.8043
G01 X41.2180 Y2.8049
G01 X41.2358 Y2.8068
G01 X41.2475 Y2.8088
G01 X41.2592 Y2.8113
G01 X41.3388 Y2.8344
G01 X41.3565 Y2.8403
G01 X41.3738 Y2.8476
G01 X41.3849 Y2.8531
G01 X41.3958 Y2.8592
G01 X41.4064 Y2.8658
G01 X41.4166 Y2.8729
G01 X41.4264 Y2.8805
G01 X41.4359 Y2.8886
G01 X41.4449 Y2.8972
G01 X41.4577 Y2.9108
G01 X41.5042 Y2.9645
G01 X41.5121 Y2.9741
G01 X41.5195 Y2.9841
G01 X41.5265 Y2.9944
G01 X41.5329 Y3.0051
G01 X41.5415 Y3.0217
G01 X41.5465 Y3.0331
G01 X41.5530 Y3.0506
G01 X41.5565 Y3.0625
G01 X41.5595 Y3.0746
G01 X41.5629 Y3.0930
G01 X41.5730 Y3.1632
G01 X41.5744 Y3.1756
G01 X41.5755 Y3.1943
G01 X41.5754 Y3.2067
G01 X41.5747 Y3.2191
G01 X41.5734 Y3.2315
G01 X41.5715 Y3.2438
G01 X41.5675 Y3.2621
G01 X41.5640 Y3.2740
G01 X41.5600 Y3.2858
G01 X41.5554 Y3.2974
G01 X41.5207 Y3.3733
G01 X41.5120 Y3.3897
G01 X41.5055 Y3.4002
G01 X41.4985 Y3.4104
G01 X41.4910 Y3.4203
G01 X41.4830 Y3.4298
G01 X41.4665 Y3.4474
G01 X40.9069 Y4.0069
G01 X40.8869 Y4.0254
G01 X40.8663 Y4.0425
G01 X40.8386 Y4.0748
G01 X40.7682 Y4.1594
G01 X40.7328 Y4.2253
G01 X40.6972 Y4.2900
G01 X40.6753 Y4.3617
G01 X40.6530 Y4.4320
G01 X40.6455 Y4.5053
G01 X40.6409 Y4.5472
G01 X40.6376 Y4.5838
G01 X40.6401 Y4.6109
G01 X40.6412 Y4.6405
G01 X40.6412 Y8.8897
G01 X40.6406 Y8.9017
G01 X40.6387 Y8.9195
G01 X40.6355 Y8.9371
G01 X40.6327 Y8.9487
G01 X40.6111 Y9.0225
G01 X40.6073 Y9.0344
G01 X40.6005 Y9.0518
G01 X40.5952 Y9.0631
G01 X40.5894 Y9.0741
G01 X40.5797 Y9.0901
G01 X40.5726 Y9.1003
G01 X40.5650 Y9.1101
G01 X40.5527 Y9.1242
G01 X40.5439 Y9.1330
G01 X40.5347 Y9.1414
G01 X40.4810 Y9.1879
G01 X40.4665 Y9.1996
G01 X40.4563 Y9.2068
G01 X40.4404 Y9.2166
G01 X40.4294 Y9.2224
G01 X40.4124 Y9.2302
G01 X40.4008 Y9.2346
G01 X40.3890 Y9.2385
G01 X40.3770 Y9.2418
G01 X40.3648 Y9.2445
G01 X40.3525 Y9.2466
G01 X40.2823 Y9.2567
G01 X40.2637 Y9.2586
G01 X40.2512 Y9.2592
G01 X40.2388 Y9.2591
G01 X40.2202 Y9.2578
G01 X40.2078 Y9.2562
G01 X40.1956 Y9.2540
G01 X40.1834 Y9.2511
G01 X40.1715 Y9.2477
G01 X40.1597 Y9.2437
G01 X40.1481 Y9.2391
G01 X40.0778 Y9.2071
G01 X40.0669 Y9.2018
G01 X40.0511 Y9.1929
G01 X40.0409 Y9.1863
G01 X40.0311 Y9.1792
G01 X40.0169 Y9.1678
G01 X40.0080 Y9.1596
G01 X39.9995 Y9.1509
G01 X39.9778 Y9.1278
G01 X39.9695 Y9.1181
G01 X39.8535 Y8.9669
G01 X39.7205 Y8.8459
G01 X39.5681 Y8.7504
G01 X39.4013 Y8.6833
G01 X39.3637 Y8.6755
G01 X39.3637 Y8.6846
G01 X39.3936 Y8.6921
G01 X39.4054 Y8.6957
G01 X39.4863 Y8.7247
G01 X39.5032 Y8.7319
G01 X39.5698 Y8.7634
G01 X39.5807 Y8.7689
G01 X39.5915 Y8.7750
G01 X39.6546 Y8.8128
G01 X39.6650 Y8.8194
G01 X39.6750 Y8.8265
G01 X39.7342 Y8.8703
G01 X39.7439 Y8.8779
G01 X39.7532 Y8.8860
G01 X39.8077 Y8.9354
G01 X39.8166 Y8.9439
G01 X39.8251 Y8.9528
G01 X39.8745 Y9.0073
G01 X39.8826 Y9.0166
G01 X39.8902 Y9.0263
G01 X39.9340 Y9.0855
G01 X39.9411 Y9.0955
G01 X39.9477 Y9.1059
G01 X39.9855 Y9.1690
G01 X39.9916 Y9.1798
G01 X39.9971 Y9.1907
G01 X40.0286 Y9.2573
G01 X40.0336 Y9.2685
G01 X40.0380 Y9.2800
G01 X40.0628 Y9.3493
G01 X40.0666 Y9.3610
G01 X40.0699 Y9.3729
G01 X40.0878 Y9.4443
G01 X40.0905 Y9.4563
G01 X40.0926 Y9.4684
G01 X40.1034 Y9.5412
G01 X40.1054 Y9.5595
G01 X40.1094 Y9.6392
G01 X40.1097 Y9.6515
G01 X40.1094 Y9.6638
G01 X40.1058 Y9.7373
G01 X40.1049 Y9.7496
G01 X40.1034 Y9.7618
G01 X40.0916 Y9.8407
G01 X40.0878 Y9.8587
G01 X40.0699 Y9.9301
G01 X40.0666 Y9.9420
G01 X40.0628 Y9.9537
G01 X40.0380 Y10.0230
G01 X40.0336 Y10.0345
G01 X40.0286 Y10.0457
G01 X39.9971 Y10.1123
G01 X39.9916 Y10.1232
G01 X39.9855 Y10.1340
G01 X39.9477 Y10.1971
G01 X39.9411 Y10.2075
G01 X39.9340 Y10.2175
G01 X39.8864 Y10.2816
G01 X39.8745 Y10.2957
G01 X39.8251 Y10.3502
G01 X39.8166 Y10.3591
G01 X39.8077 Y10.3676
G01 X39.7532 Y10.4170
G01 X39.7439 Y10.4251
G01 X39.7342 Y10.4327
G01 X39.6750 Y10.4765
G01 X39.6650 Y10.4836
G01 X39.6546 Y10.4902
G01 X39.5915 Y10.5280
G01 X39.5807 Y10.5341
G01 X39.5698 Y10.5396
G01 X39.5032 Y10.5711
G01 X39.4863 Y10.5783
G01 X39.4112 Y10.6053
G01 X39.3995 Y10.6091
G01 X39.3876 Y10.6124
G01 X39.3162 Y10.6303
G01 X39.3042 Y10.6330
G01 X39.2921 Y10.6351
G01 X39.2193 Y10.6459
G01 X39.2071 Y10.6474
G01 X39.1948 Y10.6483
G01 X39.1213 Y10.6519
G01 X39.1090 Y10.6522
G01 X38.6028 Y10.6522
G01 X38.5232 Y10.6483
G01 X38.5109 Y10.6474
G01 X38.4987 Y10.6459
G01 X38.4259 Y10.6351
G01 X38.4138 Y10.6330
G01 X38.4018 Y10.6303
G01 X38.3304 Y10.6124
G01 X38.3185 Y10.6091
G01 X38.3068 Y10.6053
G01 X38.2375 Y10.5805
G01 X38.2260 Y10.5761
G01 X38.2148 Y10.5711
G01 X38.1482 Y10.5396
G01 X38.1373 Y10.5341
G01 X38.1265 Y10.5280
G01 X38.0634 Y10.4902
G01 X38.0479 Y10.4801
G01 X37.9838 Y10.4327
G01 X37.9741 Y10.4251
G01 X37.9648 Y10.4170
G01 X37.9103 Y10.3676
G01 X37.8971 Y10.3547
G01 X37.8435 Y10.2957
G01 X37.8316 Y10.2816
G01 X37.7840 Y10.2175
G01 X37.7769 Y10.2075
G01 X37.7459 Y10.1562
G01 X37.7359 Y10.1562
G01 X37.7551 Y10.1934
G01 X37.8645 Y10.3361
G01 X37.9975 Y10.4571
G01 X38.1499 Y10.5526
G01 X38.2078 Y10.5762
G01 X38.2238 Y10.5843
G01 X38.2392 Y10.5934
G01 X38.2491 Y10.6001
G01 X38.2586 Y10.6073
G01 X38.3192 Y10.6552
G01 X38.3331 Y10.6676
G01 X38.3461 Y10.6811
G01 X38.3542 Y10.6906
G01 X38.3617 Y10.7005
G01 X38.3688 Y10.7107
G01 X38.3754 Y10.7213
G01 X38.3814 Y10.7322
G01 X38.3869 Y10.7434
G01 X38.3918 Y10.7548
G01 X38.3962 Y10.7665
G01 X38.4212 Y10.8395
G01 X38.4262 Y10.8575
G01 X38.4288 Y10.8697
G01 X38.4315 Y10.8882
G01 X38.4328 Y10.9068
G01 X38.4328 Y10.9255
G01 X38.4319 Y10.9379
G01 X38.4305 Y10.9503
G01 X38.4272 Y10.9687
G01 X38.4090 Y11.0437
G01 X38.4058 Y11.0555
G01 X38.4020 Y11.0672
G01 X38.3977 Y11.0786
G01 X38.3928 Y11.0898
G01 X38.3874 Y11.1008
G01 X38.3814 Y11.1115
G01 X38.3750 Y11.1219
G01 X38.3680 Y11.1320
G01 X38.3605 Y11.1417
G01 X38.3526 Y11.1510
G01 X38.3443 Y11.1600
G01 X38.3355 Y11.1685
G01 X38.2807 Y11.2190
G01 X38.2664 Y11.2313
G01 X38.2512 Y11.2424
G01 X38.2352 Y11.2524
G01 X38.2242 Y11.2583
G01 X38.0939 Y11.3206
G01 X37.9478 Y11.4255
G01 X37.8226 Y11.5547
G01 X37.7223 Y11.7040
G01 X37.6500 Y11.8688
G01 X37.6080 Y12.0437
G01 X37.5976 Y12.2233
G01 X37.6193 Y12.4019
G01 X37.6722 Y12.5738
G01 X37.7547 Y12.7337
G01 X37.8642 Y12.8764
G01 X37.9972 Y12.9975
G01 X38.1496 Y13.0931
G01 X38.2072 Y13.1165
G01 X38.2232 Y13.1246
G01 X38.2386 Y13.1337
G01 X38.2485 Y13.1404
G01 X38.2580 Y13.1476
G01 X38.3186 Y13.1955
G01 X38.3280 Y13.2037
G01 X38.3413 Y13.2168
G01 X38.3496 Y13.2261
G01 X38.3574 Y13.2358
G01 X38.3647 Y13.2458
G01 X38.3716 Y13.2562
G01 X38.3779 Y13.2670
G01 X38.3836 Y13.2780
G01 X38.3888 Y13.2893
G01 X38.3935 Y13.3009
G01 X38.4187 Y13.3739
G01 X38.4224 Y13.3857
G01 X38.4256 Y13.3978
G01 X38.4282 Y13.4100
G01 X38.4309 Y13.4285
G01 X38.4322 Y13.4471
G01 X38.4321 Y13.4658
G01 X38.4307 Y13.4844
G01 X38.4290 Y13.4967
G01 X38.4266 Y13.5089
G01 X38.4084 Y13.5840
G01 X38.4052 Y13.5958
G01 X38.4014 Y13.6075
G01 X38.3971 Y13.6189
G01 X38.3922 Y13.6301
G01 X38.3868 Y13.6411
G01 X38.3808 Y13.6518
G01 X38.3743 Y13.6622
G01 X38.3674 Y13.6723
G01 X38.3599 Y13.6820
G01 X38.3520 Y13.6913
G01 X38.3436 Y13.7002
G01 X38.3349 Y13.7088
G01 X38.2801 Y13.7593
G01 X38.2658 Y13.7716
G01 X38.2506 Y13.7827
G01 X38.2400 Y13.7895
G01 X38.2236 Y13.7986
G01 X38.0939 Y13.8606
G01 X37.9478 Y13.9655
G01 X37.8226 Y14.0947
G01 X37.7223 Y14.2440
G01 X37.6500 Y14.4088
G01 X37.6180 Y14.5419
G01 X37.6080 Y14.5837
G01 X37.5976 Y14.7633
G01 X37.6193 Y14.9419
G01 X37.6722 Y15.1138
G01 X37.7547 Y15.2737
G01 X37.8642 Y15.4164
G01 X37.9972 Y15.5375
G01 X38.1496 Y15.6331
G01 X38.2072 Y15.6565
G01 X38.2232 Y15.6646
G01 X38.2386 Y15.6737
G01 X38.2485 Y15.6804
G01 X38.2580 Y15.6876
G01 X38.3186 Y15.7355
G01 X38.3280 Y15.7437
G01 X38.3413 Y15.7568
G01 X38.3496 Y15.7661
G01 X38.3574 Y15.7758
G01 X38.3647 Y15.7858
G01 X38.3716 Y15.7962
G01 X38.3779 Y15.8070
G01 X38.3836 Y15.8180
G01 X38.3888 Y15.8293
G01 X38.3935 Y15.8409
G01 X38.4187 Y15.9139
G01 X38.4224 Y15.9257
G01 X38.4256 Y15.9378
G01 X38.4292 Y15.9561
G01 X38.4309 Y15.9685
G01 X38.4322 Y15.9871
G01 X38.4323 Y15.9995
G01 X38.4318 Y16.0120
G01 X38.4307 Y16.0244
G01 X38.4290 Y16.0367
G01 X38.4266 Y16.0489
G01 X38.4084 Y16.1240
G01 X38.4052 Y16.1358
G01 X38.4014 Y16.1475
G01 X38.3971 Y16.1589
G01 X38.3922 Y16.1701
G01 X38.3868 Y16.1811
G01 X38.3808 Y16.1918
G01 X38.3743 Y16.2022
G01 X38.3674 Y16.2123
G01 X38.3599 Y16.2220
G01 X38.3520 Y16.2313
G01 X38.3436 Y16.2402
G01 X38.3349 Y16.2488
G01 X38.2801 Y16.2993
G01 X38.2658 Y16.3116
G01 X38.2506 Y16.3227
G01 X38.2400 Y16.3295
G01 X38.2236 Y16.3386
G01 X38.0939 Y16.4006
G01 X37.9478 Y16.5055
G01 X37.8226 Y16.6347
G01 X37.7223 Y16.7840
G01 X37.6500 Y16.9488
G01 X37.6453 Y16.9682
G01 X37.6080 Y17.1237
G01 X37.5976 Y17.3033
G01 X37.6193 Y17.4819
G01 X37.6722 Y17.6538
G01 X37.7547 Y17.8137
G01 X37.8642 Y17.9564
G01 X37.9972 Y18.0775
G01 X38.1496 Y18.1731
G01 X38.2072 Y18.1965
G01 X38.2232 Y18.2046
G01 X38.2386 Y18.2137
G01 X38.2485 Y18.2204
G01 X38.2580 Y18.2276
G01 X38.3186 Y18.2755
G01 X38.3280 Y18.2837
G01 X38.3413 Y18.2968
G01 X38.3496 Y18.3061
G01 X38.3574 Y18.3158
G01 X38.3647 Y18.3258
G01 X38.3716 Y18.3362
G01 X38.3779 Y18.3470
G01 X38.3836 Y18.3580
G01 X38.3888 Y18.3693
G01 X38.3935 Y18.3809
G01 X38.4187 Y18.4539
G01 X38.4224 Y18.4657
G01 X38.4256 Y18.4778
G01 X38.4282 Y18.4900
G01 X38.4309 Y18.5085
G01 X38.4319 Y18.5209
G01 X38.4323 Y18.5395
G01 X38.4318 Y18.5520
G01 X38.4307 Y18.5644
G01 X38.4290 Y18.5767
G01 X38.4266 Y18.5889
G01 X38.4084 Y18.6640
G01 X38.4052 Y18.6758
G01 X38.4014 Y18.6875
G01 X38.3971 Y18.6989
G01 X38.3922 Y18.7101
G01 X38.3868 Y18.7211
G01 X38.3808 Y18.7318
G01 X38.3743 Y18.7422
G01 X38.3674 Y18.7523
G01 X38.3599 Y18.7620
G01 X38.3520 Y18.7713
G01 X38.3436 Y18.7802
G01 X38.3349 Y18.7888
G01 X38.2801 Y18.8393
G01 X38.2658 Y18.8516
G01 X38.2506 Y18.8627
G01 X38.2400 Y18.8695
G01 X38.2236 Y18.8786
G01 X38.0939 Y18.9406
G01 X37.9478 Y19.0455
G01 X37.8226 Y19.1747
G01 X37.7223 Y19.3240
G01 X37.6500 Y19.4888
G01 X37.6462 Y19.5046
G01 X37.6080 Y19.6637
G01 X37.5976 Y19.8433
G01 X37.6193 Y20.0219
G01 X37.6722 Y20.1938
G01 X37.7547 Y20.3537
G01 X37.8642 Y20.4964
G01 X37.9972 Y20.6175
G01 X38.1496 Y20.7131
G01 X38.2072 Y20.7365
G01 X38.2232 Y20.7446
G01 X38.2386 Y20.7537
G01 X38.2485 Y20.7604
G01 X38.2580 Y20.7676
G01 X38.3186 Y20.8155
G01 X38.3280 Y20.8237
G01 X38.3413 Y20.8368
G01 X38.3496 Y20.8461
G01 X38.3574 Y20.8558
G01 X38.3647 Y20.8658
G01 X38.3716 Y20.8762
G01 X38.3779 Y20.8870
G01 X38.3836 Y20.8980
G01 X38.3888 Y20.9093
G01 X38.3935 Y20.9209
G01 X38.4187 Y20.9939
G01 X38.4224 Y21.0057
G01 X38.4256 Y21.0178
G01 X38.4282 Y21.0300
G01 X38.4309 Y21.0485
G01 X38.4322 Y21.0671
G01 X38.4323 Y21.0795
G01 X38.4318 Y21.0920
G01 X38.4307 Y21.1044
G01 X38.4290 Y21.1167
G01 X38.4266 Y21.1289
G01 X38.4084 Y21.2040
G01 X38.4052 Y21.2158
G01 X38.4014 Y21.2275
G01 X38.3971 Y21.2389
G01 X38.3922 Y21.2501
G01 X38.3868 Y21.2611
G01 X38.3808 Y21.2718
G01 X38.3743 Y21.2822
G01 X38.3674 Y21.2923
G01 X38.3599 Y21.3020
G01 X38.3520 Y21.3113
G01 X38.3436 Y21.3202
G01 X38.3349 Y21.3288
G01 X38.2801 Y21.3793
G01 X38.2658 Y21.3916
G01 X38.2506 Y21.4027
G01 X38.2400 Y21.4095
G01 X38.2236 Y21.4186
G01 X38.0939 Y21.4806
G01 X37.9478 Y21.5855
G01 X37.8226 Y21.7147
G01 X37.7223 Y21.8640
G01 X37.6500 Y22.0288
G01 X37.6080 Y22.2037
G01 X37.5976 Y22.3833
G01 X37.6193 Y22.5619
G01 X37.6722 Y22.7338
G01 X37.7547 Y22.8937
G01 X37.8642 Y23.0364
G01 X37.9972 Y23.1575
G01 X38.1496 Y23.2531
G01 X38.2072 Y23.2765
G01 X38.2232 Y23.2846
G01 X38.2386 Y23.2937
G01 X38.2485 Y23.3004
G01 X38.2580 Y23.3076
G01 X38.3186 Y23.3555
G01 X38.3280 Y23.3637
G01 X38.3413 Y23.3768
G01 X38.3496 Y23.3861
G01 X38.3574 Y23.3958
G01 X38.3647 Y23.4058
G01 X38.3716 Y23.4162
G01 X38.3779 Y23.4270
G01 X38.3836 Y23.4380
G01 X38.3888 Y23.4493
G01 X38.3935 Y23.4609
G01 X38.4187 Y23.5339
G01 X38.4224 Y23.5457
G01 X38.4256 Y23.5578
G01 X38.4282 Y23.5700
G01 X38.4309 Y23.5885
G01 X38.4319 Y23.6009
G01 X38.4323 Y23.6195
G01 X38.4318 Y23.6320
G01 X38.4307 Y23.6444
G01 X38.4290 Y23.6567
G01 X38.4266 Y23.6689
G01 X38.4084 Y23.7440
G01 X38.4052 Y23.7558
G01 X38.4014 Y23.7675
G01 X38.3971 Y23.7789
G01 X38.3922 Y23.7901
G01 X38.3868 Y23.8011
G01 X38.3808 Y23.8118
G01 X38.3743 Y23.8222
G01 X38.3674 Y23.8323
G01 X38.3599 Y23.8420
G01 X38.3520 Y23.8513
G01 X38.3436 Y23.8602
G01 X38.3349 Y23.8688
G01 X38.2801 Y23.9193
G01 X38.2658 Y23.9316
G01 X38.2506 Y23.9427
G01 X38.2400 Y23.9495
G01 X38.2236 Y23.9586
G01 X38.0939 Y24.0206
G01 X37.9478 Y24.1255
G01 X37.8226 Y24.2547
G01 X37.7223 Y24.4040
G01 X37.6500 Y24.5688
G01 X37.6336 Y24.6370
G01 X37.6080 Y24.7437
G01 X37.5976 Y24.9233
G01 X37.6193 Y25.1019
G01 X37.6722 Y25.2738
G01 X37.7547 Y25.4337
G01 X37.8642 Y25.5764
G01 X37.9972 Y25.6975
G01 X38.1496 Y25.7931
G01 X38.2072 Y25.8165
G01 X38.2232 Y25.8246
G01 X38.2386 Y25.8337
G01 X38.2485 Y25.8404
G01 X38.2580 Y25.8476
G01 X38.3186 Y25.8955
G01 X38.3280 Y25.9037
G01 X38.3413 Y25.9168
G01 X38.3496 Y25.9261
G01 X38.3574 Y25.9358
G01 X38.3647 Y25.9458
G01 X38.3716 Y25.9562
G01 X38.3779 Y25.9670
G01 X38.3836 Y25.9780
G01 X38.3888 Y25.9893
G01 X38.3935 Y26.0009
G01 X38.4187 Y26.0739
G01 X38.4224 Y26.0857
G01 X38.4256 Y26.0978
G01 X38.4282 Y26.1100
G01 X38.4309 Y26.1285
G01 X38.4322 Y26.1471
G01 X38.4323 Y26.1595
G01 X38.4318 Y26.1720
G01 X38.4307 Y26.1844
G01 X38.4290 Y26.1967
G01 X38.4266 Y26.2089
G01 X38.4084 Y26.2840
G01 X38.4052 Y26.2958
G01 X38.4014 Y26.3075
G01 X38.3971 Y26.3189
G01 X38.3922 Y26.3301
G01 X38.3868 Y26.3411
G01 X38.3808 Y26.3518
G01 X38.3743 Y26.3622
G01 X38.3674 Y26.3723
G01 X38.3599 Y26.3820
G01 X38.3520 Y26.3913
G01 X38.3436 Y26.4002
G01 X38.3349 Y26.4088
G01 X38.2801 Y26.4593
G01 X38.2658 Y26.4716
G01 X38.2506 Y26.4827
G01 X38.2400 Y26.4895
G01 X38.2236 Y26.4986
G01 X38.0939 Y26.5606
G01 X37.9478 Y26.6655
G01 X37.8226 Y26.7947
G01 X37.7223 Y26.9440
G01 X37.6500 Y27.1088
G01 X37.6080 Y27.2837
G01 X37.5976 Y27.4633
G01 X37.6193 Y27.6419
G01 X37.6722 Y27.8138
G01 X37.7547 Y27.9737
G01 X37.8642 Y28.1164
G01 X37.9972 Y28.2375
G01 X38.1496 Y28.3331
G01 X38.2072 Y28.3565
G01 X38.2232 Y28.3646
G01 X38.2386 Y28.3737
G01 X38.2485 Y28.3804
G01 X38.2580 Y28.3876
G01 X38.3186 Y28.4355
G01 X38.3280 Y28.4437
G01 X38.3413 Y28.4568
G01 X38.3496 Y28.4661
G01 X38.3574 Y28.4758
G01 X38.3647 Y28.4858
G01 X38.3716 Y28.4962
G01 X38.3779 Y28.5070
G01 X38.3836 Y28.5180
G01 X38.3888 Y28.5293
G01 X38.3935 Y28.5409
G01 X38.4187 Y28.6139
G01 X38.4224 Y28.6257
G01 X38.4256 Y28.6378
G01 X38.4292 Y28.6561
G01 X38.4309 Y28.6685
G01 X38.4322 Y28.6871
G01 X38.4323 Y28.6995
G01 X38.4318 Y28.7120
G01 X38.4307 Y28.7244
G01 X38.4290 Y28.7367
G01 X38.4266 Y28.7489
G01 X38.4084 Y28.8240
G01 X38.4052 Y28.8358
G01 X38.4014 Y28.8475
G01 X38.3971 Y28.8589
G01 X38.3922 Y28.8701
G01 X38.3868 Y28.8811
G01 X38.3808 Y28.8918
G01 X38.3743 Y28.9022
G01 X38.3674 Y28.9123
G01 X38.3599 Y28.9220
G01 X38.3520 Y28.9313
G01 X38.3436 Y28.9402
G01 X38.3349 Y28.9488
G01 X38.2801 Y28.9993
G01 X38.2658 Y29.0116
G01 X38.2506 Y29.0227
G01 X38.2346 Y29.0327
G01 X38.2236 Y29.0386
G01 X38.0939 Y29.1006
G01 X37.9478 Y29.2055
G01 X37.8226 Y29.3347
G01 X37.7223 Y29.4840
G01 X37.6500 Y29.6488
G01 X37.6080 Y29.8237
G01 X37.5976 Y30.0033
G01 X37.6193 Y30.1819
G01 X37.6722 Y30.3538
G01 X37.7547 Y30.5137
G01 X37.8642 Y30.6564
G01 X37.9972 Y30.7775
G01 X38.1496 Y30.8731
G01 X38.2072 Y30.8965
G01 X38.2232 Y30.9046
G01 X38.2386 Y30.9137
G01 X38.2485 Y30.9204
G01 X38.2580 Y30.9276
G01 X38.3186 Y30.9755
G01 X38.3280 Y30.9837
G01 X38.3413 Y30.9968
G01 X38.3535 Y31.0109
G01 X38.3611 Y31.0207
G01 X38.3682 Y31.0310
G01 X38.3748 Y31.0416
G01 X38.3808 Y31.0525
G01 X38.3863 Y31.0636
G01 X38.3912 Y31.0751
G01 X38.3956 Y31.0868
G01 X38.4206 Y31.1598
G01 X38.4241 Y31.1717
G01 X38.4270 Y31.1839
G01 X38.4301 Y31.2023
G01 X38.4319 Y31.2209
G01 X38.4323 Y31.2395
G01 X38.4318 Y31.2520
G01 X38.4299 Y31.2706
G01 X38.4266 Y31.2889
G01 X38.4068 Y31.3699
G01 X38.4034 Y31.3816
G01 X38.3993 Y31.3932
G01 X38.3947 Y31.4045
G01 X38.3895 Y31.4156
G01 X38.3839 Y31.4265
G01 X38.3776 Y31.4370
G01 X38.3709 Y31.4473
G01 X38.3637 Y31.4572
G01 X38.3560 Y31.4667
G01 X38.3479 Y31.4758
G01 X38.3349 Y31.4888
G01 X38.2754 Y31.5435
G01 X38.2608 Y31.5554
G01 X38.2453 Y31.5662
G01 X38.2291 Y31.5757
G01 X38.2179 Y31.5814
G01 X38.0939 Y31.6406
G01 X38.0300 Y31.6864
G01 X38.0148 Y31.6960
G01 X38.0043 Y31.7018
G01 X37.9880 Y31.7095
G01 X37.9712 Y31.7161
G01 X37.8920 Y31.7417
G01 X37.8804 Y31.7451
G01 X37.8688 Y31.7479
G01 X37.8570 Y31.7502
G01 X37.8451 Y31.7519
G01 X37.8271 Y31.7535
G01 X37.8151 Y31.7537
G01 X37.6533 Y31.7537
G01 X37.6262 Y31.7526
G01 X37.5995 Y31.7501
G01 X37.5570 Y31.7534
G01 X37.4474 Y31.7634
G01 X37.3768 Y31.7847
G01 X37.3049 Y31.8056
G01 X37.2398 Y31.8402
G01 X37.1732 Y31.8747
G01 X37.1161 Y31.9214
G01 X37.0832 Y31.9476
G01 X37.0550 Y31.9712
G01 X37.0376 Y31.9921
G01 X37.0175 Y32.0138
G01 X35.8294 Y33.2019
G01 X35.8094 Y33.2204
G01 X35.7888 Y33.2375
G01 X35.7611 Y33.2698
G01 X35.6907 Y33.3544
G01 X35.6553 Y33.4203
G01 X35.6197 Y33.4850
G01 X35.5978 Y33.5567
G01 X35.5755 Y33.6270
G01 X35.5680 Y33.7003
G01 X35.5634 Y33.7422
G01 X35.5601 Y33.7788
G01 X35.5626 Y33.8059
G01 X35.5637 Y33.8355
G01 X35.5637 Y41.3397
G01 X35.5626 Y41.3668
G01 X35.5601 Y41.3935
G01 X35.5634 Y41.4360
G01 X35.5734 Y41.5456
G01 X35.5947 Y41.6162
G01 X35.6156 Y41.6881
G01 X35.6502 Y41.7532
G01 X35.6847 Y41.8198
G01 X35.7314 Y41.8769
G01 X35.7576 Y41.9098
G01 X35.7812 Y41.9380
G01 X35.8021 Y41.9554
G01 X35.8238 Y41.9755
G01 X39.5669 Y45.7186
G01 X39.5854 Y45.7386
G01 X39.6025 Y45.7593
G01 X39.6349 Y45.7869
G01 X39.7194 Y45.8573
G01 X39.7853 Y45.8927
G01 X39.8500 Y45.9283
G01 X39.9216 Y45.9502
G01 X39.9920 Y45.9725
G01 X40.0653 Y45.9800
G01 X40.1072 Y45.9846
G01 X40.1438 Y45.9879
G01 X40.1709 Y45.9854
G01 X40.2005 Y45.9843
G01 X43.0483 Y45.9843
G01 X43.0674 Y45.9850
G01 X43.0801 Y45.9863
G01 X43.0927 Y45.9882
G01 X43.1052 Y45.9908
G01 X43.1237 Y45.9959
G01 X43.2020 Y46.0206
G01 X43.2198 Y46.0276
G01 X43.2314 Y46.0329
G01 X43.2483 Y46.0420
G01 X43.2591 Y46.0488
G01 X43.3981 Y46.1460
G01 X43.5658 Y46.2243
G01 X43.7352 Y46.2697
G01 X43.7522 Y46.2754
G01 X43.7632 Y46.2798
G01 X43.7741 Y46.2848
G01 X43.7847 Y46.2902
G01 X43.7950 Y46.2962
G01 X43.8557 Y46.3331
G01 X43.8661 Y46.3399
G01 X43.8762 Y46.3471
G01 X43.8860 Y46.3549
G01 X43.8953 Y46.3631
G01 X43.9043 Y46.3718
G01 X43.9128 Y46.3809
G01 X43.9246 Y46.3953
G01 X43.9354 Y46.4106
G01 X43.9419 Y46.4212
G01 X43.9507 Y46.4377
G01 X43.9844 Y46.5072
G01 X43.9892 Y46.5186
G01 X43.9935 Y46.5303
G01 X43.9989 Y46.5482
G01 X44.0017 Y46.5603
G01 X44.0039 Y46.5726
G01 X44.0061 Y46.5911
G01 X44.0069 Y46.6098
G01 X44.0067 Y46.6223
G01 X44.0058 Y46.6347
G01 X43.9959 Y46.7175
G01 X43.9938 Y46.7298
G01 X43.9911 Y46.7420
G01 X43.9859 Y46.7599
G01 X43.9818 Y46.7716
G01 X43.9770 Y46.7832
G01 X43.9717 Y46.7944
G01 X43.9658 Y46.8054
G01 X43.9594 Y46.8161
G01 X43.9524 Y46.8264
G01 X43.9450 Y46.8364
G01 X43.8959 Y46.8960
G01 X43.8879 Y46.9052
G01 X43.8795 Y46.9140
G01 X43.8661 Y46.9264
G01 X43.8518 Y46.9378
G01 X43.8367 Y46.9482
G01 X43.8210 Y46.9574
G01 X43.8045 Y46.9654
G01 X43.7933 Y46.9701
G01 X43.7818 Y46.9742
G01 X43.6994 Y46.9995
G01 X43.6813 Y47.0038
G01 X43.6691 Y47.0060
G01 X43.6505 Y47.0080
G01 X43.6319 Y47.0087
G01 X7.5789 Y47.0087
G01 X7.5670 Y47.0085
G01 X7.5492 Y47.0070
G01 X7.5373 Y47.0053
G01 X7.5256 Y47.0030
G01 X7.5140 Y47.0002
G01 X7.4343 Y46.9768
G01 X7.4227 Y46.9727
G01 X7.4112 Y46.9681
G01 X7.4001 Y46.9630
G01 X7.3892 Y46.9573
G01 X7.3786 Y46.9510
G01 X7.3683 Y46.9443
G01 X7.3583 Y46.9370
G01 X7.3325 Y46.9163
G01 X7.3173 Y46.9031
G01 X5.4371 Y45.0230
G01 X5.4249 Y45.0099
G01 X5.4137 Y44.9959
G01 X5.4035 Y44.9812
G01 X5.3973 Y44.9710
G01 X5.3603 Y44.9035
G01 X5.3521 Y44.8870
G01 X5.3451 Y44.8699
G01 X5.3393 Y44.8524
G01 X5.3362 Y44.8405
G01 X5.3337 Y44.8284
G01 X5.3318 Y44.8163
G01 X5.3282 Y44.7834
G01 X5.3268 Y44.7633
G01 X5.3268 Y40.6209
G01 X5.3270 Y40.6090
G01 X5.3285 Y40.5911
G01 X5.3313 Y40.5734
G01 X5.3353 Y40.5560
G01 X5.3569 Y40.4821
G01 X5.3628 Y40.4644
G01 X5.3675 Y40.4529
G01 X5.3756 Y40.4360
G01 X5.3849 Y40.4198
G01 X5.3918 Y40.4094
G01 X5.3991 Y40.3994
G01 X5.4070 Y40.3897
G01 X5.4197 Y40.3760
G01 X5.4286 Y40.3674
G01 X5.4917 Y40.3128
G01 X5.5066 Y40.3014
G01 X5.5222 Y40.2912
G01 X5.5386 Y40.2822
G01 X5.5556 Y40.2745
G01 X5.5731 Y40.2680
G01 X5.5910 Y40.2629
G01 X5.6032 Y40.2602
G01 X5.6155 Y40.2581
G01 X5.6857 Y40.2480
G01 X5.6981 Y40.2465
G01 X5.7168 Y40.2455
G01 X5.7292 Y40.2456
G01 X5.7416 Y40.2462
G01 X5.7602 Y40.2484
G01 X5.7724 Y40.2507
G01 X5.7906 Y40.2552
G01 X5.8025 Y40.2589
G01 X5.8141 Y40.2632
G01 X5.8256 Y40.2681
G01 X5.8957 Y40.3002
G01 X5.9065 Y40.3058
G01 X5.9170 Y40.3118
G01 X5.9272 Y40.3184
G01 X5.9371 Y40.3255
G01 X5.9512 Y40.3370
G01 X5.9645 Y40.3495
G01 X5.9728 Y40.3584
G01 X5.9807 Y40.3676
G01 X5.9881 Y40.3772
G01 X6.0248 Y40.4273
G01 X6.0349 Y40.4430
G01 X6.0409 Y40.4538
G01 X6.0490 Y40.4707
G01 X6.1298 Y40.6565
G01 X6.2287 Y40.8094
G01 X6.3513 Y40.9441
G01 X6.3580 Y40.9494
G01 X6.3580 Y40.9350
G01 X6.3351 Y40.9141
G01 X6.3264 Y40.9054
G01 X6.2621 Y40.8345
G01 X6.2505 Y40.8201
G01 X6.2009 Y40.7531
G01 X6.1938 Y40.7430
G01 X6.1872 Y40.7326
G01 X6.1443 Y40.6611
G01 X6.1382 Y40.6504
G01 X6.1327 Y40.6394
G01 X6.0970 Y40.5640
G01 X6.0920 Y40.5527
G01 X6.0876 Y40.5413
G01 X6.0595 Y40.4627
G01 X6.0557 Y40.4510
G01 X6.0524 Y40.4392
G01 X6.0321 Y40.3583
G01 X6.0294 Y40.3462
G01 X6.0273 Y40.3341
G01 X6.0151 Y40.2516
G01 X6.0136 Y40.2394
G01 X6.0127 Y40.2271
G01 X6.0086 Y40.1438
G01 X6.0083 Y40.1315
G01 X6.0086 Y40.1192
G01 X6.0127 Y40.0359
G01 X6.0136 Y40.0236
G01 X6.0151 Y40.0114
G01 X6.0273 Y39.9289
G01 X6.0307 Y39.9107
G01 X6.0524 Y39.8238
G01 X6.0557 Y39.8120
G01 X6.0595 Y39.8003
G01 X6.0876 Y39.7217
G01 X6.0920 Y39.7103
G01 X6.0970 Y39.6990
G01 X6.1327 Y39.6236
G01 X6.1382 Y39.6126
G01 X6.1443 Y39.6019
G01 X6.1872 Y39.5304
G01 X6.1938 Y39.5200
G01 X6.2009 Y39.5099
G01 X6.2505 Y39.4429
G01 X6.2581 Y39.4332
G01 X6.2662 Y39.4239
G01 X6.3222 Y39.3621
G01 X6.3307 Y39.3532
G01 X6.3396 Y39.3447
G01 X6.4014 Y39.2887
G01 X6.4107 Y39.2806
G01 X6.4204 Y39.2730
G01 X6.4874 Y39.2234
G01 X6.4975 Y39.2163
G01 X6.5079 Y39.2097
G01 X6.5794 Y39.1668
G01 X6.5901 Y39.1607
G01 X6.6011 Y39.1552
G01 X6.6765 Y39.1195
G01 X6.6878 Y39.1145
G01 X6.6992 Y39.1101
G01 X6.7836 Y39.0800
G01 X6.8013 Y39.0749
G01 X6.8822 Y39.0546
G01 X6.8943 Y39.0519
G01 X6.9064 Y39.0498
G01 X6.9889 Y39.0376
G01 X7.0011 Y39.0361
G01 X7.0134 Y39.0352
G01 X7.0967 Y39.0311
G01 X7.1090 Y39.0308
G01 X7.1213 Y39.0311
G01 X7.2046 Y39.0352
G01 X7.2169 Y39.0361
G01 X7.2291 Y39.0376
G01 X7.3116 Y39.0498
G01 X7.3237 Y39.0519
G01 X7.3358 Y39.0546
G01 X7.4167 Y39.0749
G01 X7.4285 Y39.0782
G01 X7.4402 Y39.0820
G01 X7.5188 Y39.1101
G01 X7.5302 Y39.1145
G01 X7.5415 Y39.1195
G01 X7.6169 Y39.1552
G01 X7.6279 Y39.1607
G01 X7.6386 Y39.1668
G01 X7.7101 Y39.2097
G01 X7.7205 Y39.2163
G01 X7.7306 Y39.2234
G01 X7.7976 Y39.2730
G01 X7.8073 Y39.2806
G01 X7.8166 Y39.2887
G01 X7.8784 Y39.3447
G01 X7.8873 Y39.3532
G01 X7.8958 Y39.3621
G01 X7.9518 Y39.4239
G01 X7.9599 Y39.4332
G01 X7.9675 Y39.4429
G01 X8.0171 Y39.5099
G01 X8.0242 Y39.5200
G01 X8.0308 Y39.5304
G01 X8.0737 Y39.6019
G01 X8.0798 Y39.6126
G01 X8.0868 Y39.6268
G01 X8.0984 Y39.6268
G01 X8.0056 Y39.4753
G01 X7.8864 Y39.3377
G01 X7.7463 Y39.2214
G01 X7.6854 Y39.1857
G01 X7.6705 Y39.1758
G01 X7.6564 Y39.1648
G01 X7.6474 Y39.1569
G01 X7.6347 Y39.1444
G01 X7.5817 Y39.0882
G01 X7.5698 Y39.0738
G01 X7.5589 Y39.0586
G01 X7.5523 Y39.0480
G01 X7.5463 Y39.0372
G01 X7.5408 Y39.0260
G01 X7.5358 Y39.0146
G01 X7.5295 Y38.9970
G01 X7.5244 Y38.9790
G01 X7.5219 Y38.9668
G01 X7.5077 Y38.8909
G01 X7.5060 Y38.8786
G01 X7.5050 Y38.8662
G01 X7.5045 Y38.8537
G01 X7.5047 Y38.8413
G01 X7.5055 Y38.8288
G01 X7.5069 Y38.8165
G01 X7.5101 Y38.7981
G01 X7.5130 Y38.7860
G01 X7.5166 Y38.7740
G01 X7.5229 Y38.7565
G01 X7.5497 Y38.6907
G01 X7.5546 Y38.6793
G01 X7.5631 Y38.6627
G01 X7.5694 Y38.6521
G01 X7.5763 Y38.6417
G01 X7.5836 Y38.6317
G01 X7.5956 Y38.6174
G01 X7.6041 Y38.6084
G01 X7.6131 Y38.5998
G01 X7.6224 Y38.5917
G01 X7.6674 Y38.5546
G01 X7.6816 Y38.5443
G01 X7.6914 Y38.5380
G01 X7.7009 Y38.5324
G01 X7.8470 Y38.4227
G01 X7.9729 Y38.2910
G01 X8.0755 Y38.1406
G01 X8.1522 Y37.9753
G01 X8.2009 Y37.7998
G01 X8.2202 Y37.6187
G01 X8.2098 Y37.4368
G01 X8.1697 Y37.2591
G01 X8.1012 Y37.0903
G01 X8.0060 Y36.9350
G01 X7.8867 Y36.7973
G01 X7.7466 Y36.6810
G01 X7.6859 Y36.6454
G01 X7.6710 Y36.6355
G01 X7.6569 Y36.6245
G01 X7.6436 Y36.6126
G01 X7.6352 Y36.6041
G01 X7.5865 Y36.5525
G01 X7.5742 Y36.5384
G01 X7.5629 Y36.5235
G01 X7.5561 Y36.5131
G01 X7.5498 Y36.5024
G01 X7.5413 Y36.4857
G01 X7.5363 Y36.4743
G01 X7.5320 Y36.4626
G01 X7.5282 Y36.4508
G01 X7.5236 Y36.4327
G01 X7.5082 Y36.3506
G01 X7.5066 Y36.3383
G01 X7.5055 Y36.3259
G01 X7.5050 Y36.3072
G01 X7.5055 Y36.2948
G01 X7.5074 Y36.2762
G01 X7.5094 Y36.2639
G01 X7.5120 Y36.2517
G01 X7.5153 Y36.2397
G01 X7.5191 Y36.2278
G01 X7.5235 Y36.2162
G01 X7.5502 Y36.1504
G01 X7.5552 Y36.1390
G01 X7.5607 Y36.1279
G01 X7.5700 Y36.1118
G01 X7.5804 Y36.0964
G01 X7.5880 Y36.0866
G01 X7.6003 Y36.0726
G01 X7.6136 Y36.0595
G01 X7.6230 Y36.0514
G01 X7.6726 Y36.0108
G01 X7.6870 Y36.0008
G01 X7.7007 Y35.9925
G01 X7.8443 Y35.8847
G01 X7.8541 Y35.8778
G01 X7.8641 Y35.8713
G01 X7.8797 Y35.8625
G01 X7.8904 Y35.8573
G01 X7.9069 Y35.8504
G01 X7.9793 Y35.8234
G01 X7.9971 Y35.8180
G01 X8.0092 Y35.8151
G01 X8.0275 Y35.8119
G01 X8.0460 Y35.8101
G01 X8.0614 Y35.8094
G01 X10.0598 Y35.8093
G01 X10.0777 Y35.8099
G01 X10.0896 Y35.8110
G01 X10.1014 Y35.8127
G01 X10.1190 Y35.8163
G01 X10.1986 Y35.8394
G01 X10.2105 Y35.8432
G01 X10.2279 Y35.8500
G01 X10.2447 Y35.8581
G01 X10.2609 Y35.8674
G01 X10.2764 Y35.8779
G01 X10.2862 Y35.8855
G01 X10.2957 Y35.8936
G01 X10.3091 Y35.9066
G01 X10.3175 Y35.9158
G01 X10.3640 Y35.9695
G01 X10.3719 Y35.9791
G01 X10.3828 Y35.9942
G01 X10.3926 Y36.0101
G01 X10.4012 Y36.0267
G01 X10.4063 Y36.0381
G01 X10.4107 Y36.0497
G01 X10.4163 Y36.0675
G01 X10.4206 Y36.0857
G01 X10.4227 Y36.0980
G01 X10.4336 Y36.1744
G01 X10.4351 Y36.1930
G01 X10.4353 Y36.2055
G01 X10.4345 Y36.2241
G01 X10.4332 Y36.2365
G01 X10.4313 Y36.2488
G01 X10.4272 Y36.2671
G01 X10.4219 Y36.2850
G01 X10.4175 Y36.2966
G01 X10.4126 Y36.3081
G01 X10.3805 Y36.3782
G01 X10.3749 Y36.3891
G01 X10.3655 Y36.4048
G01 X10.3586 Y36.4149
G01 X10.3512 Y36.4247
G01 X10.3434 Y36.4341
G01 X10.3351 Y36.4430
G01 X10.3219 Y36.4557
G01 X10.2829 Y36.4888
G01 X10.2727 Y36.4965
G01 X10.2621 Y36.5038
G01 X10.1774 Y36.5558
G01 X10.0269 Y36.6844
G01 X9.8983 Y36.8349
G01 X9.7949 Y37.0037
G01 X9.7191 Y37.1866
G01 X9.6729 Y37.3791
G01 X9.6574 Y37.5765
G01 X9.6729 Y37.7739
G01 X9.7191 Y37.9664
G01 X9.7949 Y38.1493
G01 X9.8983 Y38.3181
G01 X10.0387 Y38.4824
G01 X10.0498 Y38.4964
G01 X10.0599 Y38.5112
G01 X10.0660 Y38.5214
G01 X10.0743 Y38.5373
G01 X10.1058 Y38.6075
G01 X10.1106 Y38.6190
G01 X10.1168 Y38.6366
G01 X10.1216 Y38.6547
G01 X10.1250 Y38.6730
G01 X10.1265 Y38.6854
G01 X10.1275 Y38.6978
G01 X10.1278 Y38.7103
G01 X10.1274 Y38.7227
G01 X10.1265 Y38.7351
G01 X10.1249 Y38.7475
G01 X10.1143 Y38.8177
G01 X10.1122 Y38.8300
G01 X10.1078 Y38.8481
G01 X10.1041 Y38.8600
G01 X10.0999 Y38.8717
G01 X10.0924 Y38.8888
G01 X10.0837 Y38.9054
G01 X10.0772 Y38.9160
G01 X10.0702 Y38.9263
G01 X10.0588 Y38.9411
G01 X10.0089 Y38.9984
G01 X9.9961 Y39.0116
G01 X9.9870 Y39.0199
G01 X9.9776 Y39.0278
G01 X9.8848 Y39.0973
G01 X9.8406 Y39.1564
G01 X9.8131 Y39.2296
G01 X9.8112 Y39.2469
G01 X9.8112 Y41.0161
G01 X9.8131 Y41.0334
G01 X9.8406 Y41.1066
G01 X9.8848 Y41.1657
G01 X9.9439 Y41.2099
G01 X10.0349 Y41.2441
G01 X10.0459 Y41.2488
G01 X10.0566 Y41.2541
G01 X10.0722 Y41.2628
G01 X10.0822 Y41.2693
G01 X10.0919 Y41.2763
G01 X10.1536 Y41.3227
G01 X10.1632 Y41.3307
G01 X10.1723 Y41.3391
G01 X10.1853 Y41.3526
G01 X10.1972 Y41.3670
G01 X10.2080 Y41.3822
G01 X10.2145 Y41.3928
G01 X10.2205 Y41.4037
G01 X10.2285 Y41.4206
G01 X10.2332 Y41.4321
G01 X10.2579 Y41.4987
G01 X10.2619 Y41.5105
G01 X10.2653 Y41.5224
G01 X10.2682 Y41.5346
G01 X10.2704 Y41.5468
G01 X10.2721 Y41.5592
G01 X10.2734 Y41.5778
G01 X10.2733 Y41.5965
G01 X10.2718 Y41.6151
G01 X10.2690 Y41.6335
G01 X10.2525 Y41.7090
G01 X10.2495 Y41.7213
G01 X10.2438 Y41.7393
G01 X10.2393 Y41.7511
G01 X10.2341 Y41.7627
G01 X10.2254 Y41.7795
G01 X10.2154 Y41.7956
G01 X10.2080 Y41.8059
G01 X10.1791 Y41.8439
G01 X10.1713 Y41.8530
G01 X10.1630 Y41.8616
G01 X10.1039 Y41.9205
G01 X10.1155 Y41.9205
G01 X10.1364 Y41.8976
G01 X10.1451 Y41.8889
G01 X10.2160 Y41.8246
G01 X10.2304 Y41.8130
G01 X10.2974 Y41.7634
G01 X10.3075 Y41.7563
G01 X10.3179 Y41.7497
G01 X10.3894 Y41.7068
G01 X10.4001 Y41.7007
G01 X10.4111 Y41.6952
G01 X10.4921 Y41.6570
G01 X10.5092 Y41.6501
G01 X10.5878 Y41.6220
G01 X10.5995 Y41.6182
G01 X10.6113 Y41.6149
G01 X10.6922 Y41.5946
G01 X10.7043 Y41.5919
G01 X10.7164 Y41.5898
G01 X10.7989 Y41.5776
G01 X10.8111 Y41.5761
G01 X10.8234 Y41.5752
G01 X10.9067 Y41.5711
G01 X10.9190 Y41.5708
G01 X10.9313 Y41.5711
G01 X11.0146 Y41.5752
G01 X11.0269 Y41.5761
G01 X11.0391 Y41.5776
G01 X11.1216 Y41.5898
G01 X11.1337 Y41.5919
G01 X11.1458 Y41.5946
G01 X11.2267 Y41.6149
G01 X11.2385 Y41.6182
G01 X11.2502 Y41.6220
G01 X11.3288 Y41.6501
G01 X11.3459 Y41.6570
G01 X11.4269 Y41.6952
G01 X11.4379 Y41.7007
G01 X11.4486 Y41.7068
G01 X11.5201 Y41.7497
G01 X11.5305 Y41.7563
G01 X11.5406 Y41.7634
G01 X11.6076 Y41.8130
G01 X11.6220 Y41.8246
G01 X11.6929 Y41.8889
G01 X11.7016 Y41.8976
G01 X11.7225 Y41.9205
G01 X11.7335 Y41.9205
G01 X11.6955 Y41.8766
G01 X11.6857 Y41.8673
G01 X11.6735 Y41.8542
G01 X11.6660 Y41.8450
G01 X11.6554 Y41.8305
G01 X11.6158 Y41.7716
G01 X11.6060 Y41.7557
G01 X11.5973 Y41.7392
G01 X11.5923 Y41.7278
G01 X11.5858 Y41.7103
G01 X11.5822 Y41.6984
G01 X11.5791 Y41.6863
G01 X11.5767 Y41.6741
G01 X11.5749 Y41.6617
G01 X11.5737 Y41.6493
G01 X11.5732 Y41.6369
G01 X11.5717 Y41.5659
G01 X11.5717 Y41.5535
G01 X11.5724 Y41.5410
G01 X11.5737 Y41.5286
G01 X11.5756 Y41.5163
G01 X11.5781 Y41.5041
G01 X11.5812 Y41.4921
G01 X11.5869 Y41.4743
G01 X11.5915 Y41.4627
G01 X11.5967 Y41.4514
G01 X11.6024 Y41.4403
G01 X11.6086 Y41.4295
G01 X11.6457 Y41.3690
G01 X11.6525 Y41.3585
G01 X11.6598 Y41.3484
G01 X11.6717 Y41.3339
G01 X11.6803 Y41.3247
G01 X11.6892 Y41.3160
G01 X11.7035 Y41.3038
G01 X11.7186 Y41.2927
G01 X11.7291 Y41.2859
G01 X11.7744 Y41.2584
G01 X11.7900 Y41.2501
G01 X11.8008 Y41.2452
G01 X11.8117 Y41.2408
G01 X11.8941 Y41.2099
G01 X11.9532 Y41.1657
G01 X12.0029 Y41.0993
G01 X12.0102 Y41.0861
G01 X12.0168 Y41.0754
G01 X12.0238 Y41.0651
G01 X12.0314 Y41.0552
G01 X12.0690 Y41.0082
G01 X12.0769 Y40.9988
G01 X12.0896 Y40.9855
G01 X12.0987 Y40.9771
G01 X12.1081 Y40.9692
G01 X12.1229 Y40.9582
G01 X12.1385 Y40.9483
G01 X12.1493 Y40.9424
G01 X12.1660 Y40.9345
G01 X12.1774 Y40.9299
G01 X12.2498 Y40.9032
G01 X12.2675 Y40.8978
G01 X12.2796 Y40.8949
G01 X12.2978 Y40.8918
G01 X12.3101 Y40.8905
G01 X12.3400 Y40.8893
G01 X14.9520 Y40.8893
G01 X14.9648 Y40.8896
G01 X14.9775 Y40.8906
G01 X14.9902 Y40.8922
G01 X15.0027 Y40.8944
G01 X15.0152 Y40.8973
G01 X15.0944 Y40.9201
G01 X15.1065 Y40.9243
G01 X15.1183 Y40.9290
G01 X15.1356 Y40.9373
G01 X15.1467 Y40.9435
G01 X15.2896 Y41.0331
G01 X15.4565 Y41.1002
G01 X15.6366 Y41.1374
G01 X15.6662 Y41.1392
G01 X16.2948 Y41.1393
G01 X16.4282 Y41.1274
G01 X16.6017 Y41.0799
G01 X16.7641 Y41.0024
G01 X16.9102 Y40.8975
G01 X17.0354 Y40.7683
G01 X17.1357 Y40.6190
G01 X17.2080 Y40.4542
G01 X17.2500 Y40.2793
G01 X17.2604 Y40.0997
G01 X17.2387 Y39.9211
G01 X17.1858 Y39.7492
G01 X17.1033 Y39.5893
G01 X16.9938 Y39.4466
G01 X16.8608 Y39.3255
G01 X16.7084 Y39.2299
G01 X16.6508 Y39.2065
G01 X16.6348 Y39.1984
G01 X16.6194 Y39.1893
G01 X16.6095 Y39.1826
G01 X16.6000 Y39.1754
G01 X16.5394 Y39.1275
G01 X16.5255 Y39.1151
G01 X16.5167 Y39.1062
G01 X16.5084 Y39.0969
G01 X16.5006 Y39.0872
G01 X16.4933 Y39.0772
G01 X16.4864 Y39.0668
G01 X16.4801 Y39.0560
G01 X16.4744 Y39.0450
G01 X16.4692 Y39.0337
G01 X16.4624 Y39.0162
G01 X16.4374 Y38.9432
G01 X16.4324 Y38.9252
G01 X16.4288 Y38.9069
G01 X16.4271 Y38.8945
G01 X16.4261 Y38.8821
G01 X16.4257 Y38.8635
G01 X16.4262 Y38.8510
G01 X16.4273 Y38.8386
G01 X16.4290 Y38.8263
G01 X16.4314 Y38.8141
G01 X16.4496 Y38.7390
G01 X16.4528 Y38.7272
G01 X16.4566 Y38.7155
G01 X16.4609 Y38.7041
G01 X16.4658 Y38.6929
G01 X16.4712 Y38.6819
G01 X16.4772 Y38.6712
G01 X16.4837 Y38.6608
G01 X16.4906 Y38.6507
G01 X16.4981 Y38.6410
G01 X16.5060 Y38.6317
G01 X16.5144 Y38.6228
G01 X16.5231 Y38.6142
G01 X16.5779 Y38.5637
G01 X16.5922 Y38.5514
G01 X16.6074 Y38.5403
G01 X16.6180 Y38.5335
G01 X16.6344 Y38.5244
G01 X16.7641 Y38.4624
G01 X16.9102 Y38.3575
G01 X17.0354 Y38.2283
G01 X17.1357 Y38.0790
G01 X17.2080 Y37.9142
G01 X17.2500 Y37.7393
G01 X17.2604 Y37.5597
G01 X17.2387 Y37.3811
G01 X17.1858 Y37.2092
G01 X17.1090 Y37.0602
G01 X17.1033 Y37.0493
G01 X16.9938 Y36.9066
G01 X16.8608 Y36.7855
G01 X16.7084 Y36.6899
G01 X16.6508 Y36.6665
G01 X16.6348 Y36.6584
G01 X16.6194 Y36.6493
G01 X16.6047 Y36.6391
G01 X16.5442 Y36.5914
G01 X16.5300 Y36.5793
G01 X16.5210 Y36.5707
G01 X16.5125 Y36.5616
G01 X16.5006 Y36.5472
G01 X16.4933 Y36.5372
G01 X16.4864 Y36.5268
G01 X16.4801 Y36.5160
G01 X16.4744 Y36.5050
G01 X16.4692 Y36.4937
G01 X16.4645 Y36.4821
G01 X16.4393 Y36.4091
G01 X16.4356 Y36.3973
G01 X16.4324 Y36.3852
G01 X16.4298 Y36.3730
G01 X16.4271 Y36.3545
G01 X16.4261 Y36.3421
G01 X16.4257 Y36.3235
G01 X16.4262 Y36.3110
G01 X16.4273 Y36.2986
G01 X16.4290 Y36.2863
G01 X16.4314 Y36.2741
G01 X16.4496 Y36.1990
G01 X16.4528 Y36.1872
G01 X16.4566 Y36.1755
G01 X16.4609 Y36.1641
G01 X16.4658 Y36.1529
G01 X16.4712 Y36.1419
G01 X16.4772 Y36.1312
G01 X16.4837 Y36.1208
G01 X16.4906 Y36.1107
G01 X16.4981 Y36.1010
G01 X16.5060 Y36.0917
G01 X16.5144 Y36.0828
G01 X16.5231 Y36.0742
G01 X16.5779 Y36.0237
G01 X16.5922 Y36.0114
G01 X16.6074 Y36.0003
G01 X16.6234 Y35.9903
G01 X16.6344 Y35.9844
G01 X16.7641 Y35.9224
G01 X16.9102 Y35.8175
G01 X17.0354 Y35.6883
G01 X17.1357 Y35.5390
G01 X17.2080 Y35.3742
G01 X17.2500 Y35.1993
G01 X17.2604 Y35.0197
G01 X17.2387 Y34.8411
G01 X17.1858 Y34.6692
G01 X17.1033 Y34.5093
G01 X16.9938 Y34.3666
G01 X16.8608 Y34.2455
G01 X16.7084 Y34.1499
G01 X16.6508 Y34.1265
G01 X16.6348 Y34.1184
G01 X16.6194 Y34.1093
G01 X16.6095 Y34.1026
G01 X16.6000 Y34.0954
G01 X16.5394 Y34.0475
G01 X16.5300 Y34.0393
G01 X16.5167 Y34.0262
G01 X16.5084 Y34.0169
G01 X16.5006 Y34.0072
G01 X16.4933 Y33.9972
G01 X16.4864 Y33.9868
G01 X16.4801 Y33.9760
G01 X16.4744 Y33.9650
G01 X16.4692 Y33.9537
G01 X16.4645 Y33.9421
G01 X16.4393 Y33.8691
G01 X16.4356 Y33.8573
G01 X16.4324 Y33.8452
G01 X16.4288 Y33.8269
G01 X16.4271 Y33.8145
G01 X16.4261 Y33.8021
G01 X16.4257 Y33.7835
G01 X16.4262 Y33.7710
G01 X16.4273 Y33.7586
G01 X16.4290 Y33.7463
G01 X16.4314 Y33.7341
G01 X16.4496 Y33.6590
G01 X16.4528 Y33.6472
G01 X16.4566 Y33.6355
G01 X16.4609 Y33.6241
G01 X16.4658 Y33.6129
G01 X16.4712 Y33.6019
G01 X16.4772 Y33.5912
G01 X16.4837 Y33.5808
G01 X16.4906 Y33.5707
G01 X16.4981 Y33.5610
G01 X16.5060 Y33.5517
G01 X16.5144 Y33.5428
G01 X16.5231 Y33.5342
G01 X16.5779 Y33.4837
G01 X16.5922 Y33.4714
G01 X16.6074 Y33.4603
G01 X16.6180 Y33.4535
G01 X16.6344 Y33.4444
G01 X16.7641 Y33.3824
G01 X16.9102 Y33.2775
G01 X17.0354 Y33.1483
G01 X17.1357 Y32.9990
G01 X17.2080 Y32.8342
G01 X17.2500 Y32.6593
G01 X17.2604 Y32.4797
G01 X17.2387 Y32.3011
G01 X17.1858 Y32.1292
G01 X17.1033 Y31.9693
G01 X16.9938 Y31.8266
G01 X16.8608 Y31.7055
G01 X16.7084 Y31.6099
G01 X16.6508 Y31.5865
G01 X16.6348 Y31.5784
G01 X16.6194 Y31.5693
G01 X16.6095 Y31.5626
G01 X16.6000 Y31.5554
G01 X16.5394 Y31.5075
G01 X16.5255 Y31.4951
G01 X16.5167 Y31.4862
G01 X16.5084 Y31.4769
G01 X16.5006 Y31.4672
G01 X16.4933 Y31.4572
G01 X16.4864 Y31.4468
G01 X16.4801 Y31.4360
G01 X16.4744 Y31.4250
G01 X16.4692 Y31.4137
G01 X16.4645 Y31.4021
G01 X16.4393 Y31.3291
G01 X16.4356 Y31.3173
G01 X16.4324 Y31.3052
G01 X16.4298 Y31.2930
G01 X16.4271 Y31.2745
G01 X16.4261 Y31.2621
G01 X16.4257 Y31.2435
G01 X16.4262 Y31.2310
G01 X16.4273 Y31.2186
G01 X16.4290 Y31.2063
G01 X16.4314 Y31.1941
G01 X16.4496 Y31.1190
G01 X16.4528 Y31.1072
G01 X16.4566 Y31.0955
G01 X16.4609 Y31.0841
G01 X16.4658 Y31.0729
G01 X16.4712 Y31.0619
G01 X16.4772 Y31.0512
G01 X16.4837 Y31.0408
G01 X16.4906 Y31.0307
G01 X16.4981 Y31.0210
G01 X16.5060 Y31.0117
G01 X16.5144 Y31.0028
G01 X16.5231 Y30.9942
G01 X16.5779 Y30.9437
G01 X16.5922 Y30.9314
G01 X16.6074 Y30.9203
G01 X16.6234 Y30.9103
G01 X16.6344 Y30.9044
G01 X16.7641 Y30.8424
G01 X16.9102 Y30.7375
G01 X17.0354 Y30.6083
G01 X17.1357 Y30.4590
G01 X17.2080 Y30.2942
G01 X17.2500 Y30.1193
G01 X17.2604 Y29.9397
G01 X17.2387 Y29.7611
G01 X17.1858 Y29.5892
G01 X17.1033 Y29.4293
G01 X16.9938 Y29.2866
G01 X16.8608 Y29.1655
G01 X16.7084 Y29.0699
G01 X16.6508 Y29.0465
G01 X16.6348 Y29.0384
G01 X16.6194 Y29.0293
G01 X16.6095 Y29.0226
G01 X16.6000 Y29.0154
G01 X16.5394 Y28.9675
G01 X16.5300 Y28.9593
G01 X16.5167 Y28.9462
G01 X16.5084 Y28.9369
G01 X16.5006 Y28.9272
G01 X16.4933 Y28.9172
G01 X16.4864 Y28.9068
G01 X16.4801 Y28.8960
G01 X16.4744 Y28.8850
G01 X16.4692 Y28.8737
G01 X16.4645 Y28.8621
G01 X16.4393 Y28.7891
G01 X16.4356 Y28.7773
G01 X16.4324 Y28.7652
G01 X16.4298 Y28.7530
G01 X16.4271 Y28.7345
G01 X16.4261 Y28.7221
G01 X16.4257 Y28.7035
G01 X16.4262 Y28.6910
G01 X16.4273 Y28.6786
G01 X16.4290 Y28.6663
G01 X16.4314 Y28.6541
G01 X16.4496 Y28.5790
G01 X16.4528 Y28.5672
G01 X16.4566 Y28.5555
G01 X16.4609 Y28.5441
G01 X16.4658 Y28.5329
G01 X16.4712 Y28.5219
G01 X16.4772 Y28.5112
G01 X16.4837 Y28.5008
G01 X16.4906 Y28.4907
G01 X16.4981 Y28.4810
G01 X16.5060 Y28.4717
G01 X16.5144 Y28.4628
G01 X16.5231 Y28.4542
G01 X16.5779 Y28.4037
G01 X16.5922 Y28.3914
G01 X16.6074 Y28.3803
G01 X16.6234 Y28.3703
G01 X16.6344 Y28.3644
G01 X16.7641 Y28.3024
G01 X16.9102 Y28.1975
G01 X17.0354 Y28.0683
G01 X17.1357 Y27.9190
G01 X17.2080 Y27.7542
G01 X17.2427 Y27.6097
G01 X17.2500 Y27.5793
G01 X17.2604 Y27.3997
G01 X17.2387 Y27.2211
G01 X17.1858 Y27.0492
G01 X17.1033 Y26.8893
G01 X16.9938 Y26.7466
G01 X16.8608 Y26.6255
G01 X16.7084 Y26.5299
G01 X16.6508 Y26.5065
G01 X16.6348 Y26.4984
G01 X16.6194 Y26.4893
G01 X16.6095 Y26.4826
G01 X16.6000 Y26.4754
G01 X16.5394 Y26.4275
G01 X16.5255 Y26.4151
G01 X16.5167 Y26.4062
G01 X16.5084 Y26.3969
G01 X16.5006 Y26.3872
G01 X16.4933 Y26.3772
G01 X16.4864 Y26.3668
G01 X16.4801 Y26.3560
G01 X16.4744 Y26.3450
G01 X16.4692 Y26.3337
G01 X16.4645 Y26.3221
G01 X16.4393 Y26.2491
G01 X16.4339 Y26.2313
G01 X16.4298 Y26.2130
G01 X16.4279 Y26.2007
G01 X16.4261 Y26.1821
G01 X16.4257 Y26.1697
G01 X16.4259 Y26.1572
G01 X16.4267 Y26.1448
G01 X16.4281 Y26.1324
G01 X16.4301 Y26.1202
G01 X16.4328 Y26.1080
G01 X16.4496 Y26.0390
G01 X16.4528 Y26.0272
G01 X16.4566 Y26.0155
G01 X16.4609 Y26.0041
G01 X16.4658 Y25.9929
G01 X16.4712 Y25.9819
G01 X16.4772 Y25.9712
G01 X16.4837 Y25.9608
G01 X16.4906 Y25.9507
G01 X16.4981 Y25.9410
G01 X16.5060 Y25.9317
G01 X16.5144 Y25.9228
G01 X16.5231 Y25.9142
G01 X16.5779 Y25.8637
G01 X16.5922 Y25.8514
G01 X16.6074 Y25.8403
G01 X16.6234 Y25.8303
G01 X16.6344 Y25.8244
G01 X16.7641 Y25.7624
G01 X16.9102 Y25.6575
G01 X17.0354 Y25.5283
G01 X17.1357 Y25.3790
G01 X17.2080 Y25.2142
G01 X17.2500 Y25.0393
G01 X17.2604 Y24.8597
G01 X17.2387 Y24.6811
G01 X17.1858 Y24.5092
G01 X17.1033 Y24.3493
G01 X16.9938 Y24.2066
G01 X16.8608 Y24.0855
G01 X16.7084 Y23.9899
G01 X16.6508 Y23.9665
G01 X16.6348 Y23.9584
G01 X16.6194 Y23.9493
G01 X16.6095 Y23.9426
G01 X16.6000 Y23.9354
G01 X16.5394 Y23.8875
G01 X16.5255 Y23.8751
G01 X16.5167 Y23.8662
G01 X16.5084 Y23.8569
G01 X16.5006 Y23.8472
G01 X16.4933 Y23.8372
G01 X16.4864 Y23.8268
G01 X16.4801 Y23.8160
G01 X16.4744 Y23.8050
G01 X16.4692 Y23.7937
G01 X16.4645 Y23.7821
G01 X16.4393 Y23.7091
G01 X16.4339 Y23.6913
G01 X16.4310 Y23.6791
G01 X16.4279 Y23.6607
G01 X16.4261 Y23.6421
G01 X16.4257 Y23.6297
G01 X16.4259 Y23.6172
G01 X16.4267 Y23.6048
G01 X16.4281 Y23.5924
G01 X16.4301 Y23.5802
G01 X16.4328 Y23.5680
G01 X16.4496 Y23.4990
G01 X16.4528 Y23.4872
G01 X16.4566 Y23.4755
G01 X16.4609 Y23.4641
G01 X16.4658 Y23.4529
G01 X16.4712 Y23.4419
G01 X16.4772 Y23.4312
G01 X16.4837 Y23.4208
G01 X16.4906 Y23.4107
G01 X16.4981 Y23.4010
G01 X16.5060 Y23.3917
G01 X16.5144 Y23.3828
G01 X16.5231 Y23.3742
G01 X16.5779 Y23.3237
G01 X16.5922 Y23.3114
G01 X16.6074 Y23.3003
G01 X16.6234 Y23.2903
G01 X16.6344 Y23.2844
G01 X16.7641 Y23.2224
G01 X16.9102 Y23.1175
G01 X17.0354 Y22.9883
G01 X17.1357 Y22.8390
G01 X17.2080 Y22.6742
G01 X17.2500 Y22.4993
G01 X17.2604 Y22.3197
G01 X17.2387 Y22.1411
G01 X17.1858 Y21.9692
G01 X17.1033 Y21.8093
G01 X16.9938 Y21.6666
G01 X16.8608 Y21.5455
G01 X16.7084 Y21.4499
G01 X16.6508 Y21.4265
G01 X16.6348 Y21.4184
G01 X16.6194 Y21.4093
G01 X16.6095 Y21.4026
G01 X16.6000 Y21.3954
G01 X16.5394 Y21.3475
G01 X16.5255 Y21.3351
G01 X16.5167 Y21.3262
G01 X16.5084 Y21.3169
G01 X16.5006 Y21.3072
G01 X16.4933 Y21.2972
G01 X16.4864 Y21.2868
G01 X16.4801 Y21.2760
G01 X16.4744 Y21.2650
G01 X16.4692 Y21.2537
G01 X16.4645 Y21.2421
G01 X16.4393 Y21.1691
G01 X16.4339 Y21.1513
G01 X16.4298 Y21.1330
G01 X16.4279 Y21.1207
G01 X16.4261 Y21.1021
G01 X16.4257 Y21.0897
G01 X16.4259 Y21.0772
G01 X16.4267 Y21.0648
G01 X16.4281 Y21.0524
G01 X16.4301 Y21.0402
G01 X16.4328 Y21.0280
G01 X16.4496 Y20.9590
G01 X16.4528 Y20.9472
G01 X16.4566 Y20.9355
G01 X16.4609 Y20.9241
G01 X16.4658 Y20.9129
G01 X16.4712 Y20.9019
G01 X16.4772 Y20.8912
G01 X16.4837 Y20.8808
G01 X16.4906 Y20.8707
G01 X16.4981 Y20.8610
G01 X16.5060 Y20.8517
G01 X16.5144 Y20.8428
G01 X16.5231 Y20.8342
G01 X16.5779 Y20.7837
G01 X16.5922 Y20.7714
G01 X16.6074 Y20.7603
G01 X16.6234 Y20.7503
G01 X16.6344 Y20.7444
G01 X16.7641 Y20.6824
G01 X16.9102 Y20.5775
G01 X17.0354 Y20.4483
G01 X17.1357 Y20.2990
G01 X17.2080 Y20.1342
G01 X17.2500 Y19.9593
G01 X17.2604 Y19.7797
G01 X17.2387 Y19.6011
G01 X17.1858 Y19.4292
G01 X17.1033 Y19.2693
G01 X16.9938 Y19.1266
G01 X16.8608 Y19.0055
G01 X16.7084 Y18.9099
G01 X16.6508 Y18.8865
G01 X16.6348 Y18.8784
G01 X16.6194 Y18.8693
G01 X16.6095 Y18.8626
G01 X16.6000 Y18.8554
G01 X16.5394 Y18.8075
G01 X16.5255 Y18.7951
G01 X16.5167 Y18.7862
G01 X16.5084 Y18.7769
G01 X16.5006 Y18.7672
G01 X16.4933 Y18.7572
G01 X16.4864 Y18.7468
G01 X16.4801 Y18.7360
G01 X16.4744 Y18.7250
G01 X16.4692 Y18.7137
G01 X16.4645 Y18.7021
G01 X16.4393 Y18.6291
G01 X16.4339 Y18.6113
G01 X16.4310 Y18.5991
G01 X16.4279 Y18.5807
G01 X16.4261 Y18.5621
G01 X16.4257 Y18.5497
G01 X16.4259 Y18.5372
G01 X16.4267 Y18.5248
G01 X16.4281 Y18.5124
G01 X16.4301 Y18.5002
G01 X16.4328 Y18.4880
G01 X16.4496 Y18.4190
G01 X16.4528 Y18.4072
G01 X16.4566 Y18.3955
G01 X16.4609 Y18.3841
G01 X16.4658 Y18.3729
G01 X16.4712 Y18.3619
G01 X16.4772 Y18.3512
G01 X16.4837 Y18.3408
G01 X16.4906 Y18.3307
G01 X16.4981 Y18.3210
G01 X16.5060 Y18.3117
G01 X16.5144 Y18.3028
G01 X16.5231 Y18.2942
G01 X16.5779 Y18.2437
G01 X16.5922 Y18.2314
G01 X16.6074 Y18.2203
G01 X16.6234 Y18.2103
G01 X16.6344 Y18.2044
G01 X16.7641 Y18.1424
G01 X16.9102 Y18.0375
G01 X17.0354 Y17.9083
G01 X17.1357 Y17.7590
G01 X17.2080 Y17.5942
G01 X17.2420 Y17.4525
G01 X17.2500 Y17.4193
G01 X17.2604 Y17.2397
G01 X17.2387 Y17.0611
G01 X17.1858 Y16.8892
G01 X17.1033 Y16.7293
G01 X16.9938 Y16.5866
G01 X16.8608 Y16.4655
G01 X16.7084 Y16.3699
G01 X16.6508 Y16.3465
G01 X16.6348 Y16.3384
G01 X16.6194 Y16.3293
G01 X16.6095 Y16.3226
G01 X16.6000 Y16.3154
G01 X16.5394 Y16.2675
G01 X16.5300 Y16.2593
G01 X16.5167 Y16.2462
G01 X16.5084 Y16.2369
G01 X16.5006 Y16.2272
G01 X16.4933 Y16.2172
G01 X16.4864 Y16.2068
G01 X16.4801 Y16.1960
G01 X16.4744 Y16.1850
G01 X16.4692 Y16.1737
G01 X16.4645 Y16.1621
G01 X16.4393 Y16.0891
G01 X16.4339 Y16.0713
G01 X16.4310 Y16.0591
G01 X16.4279 Y16.0407
G01 X16.4261 Y16.0221
G01 X16.4257 Y16.0097
G01 X16.4259 Y15.9972
G01 X16.4267 Y15.9848
G01 X16.4281 Y15.9724
G01 X16.4301 Y15.9602
G01 X16.4328 Y15.9480
G01 X16.4496 Y15.8790
G01 X16.4528 Y15.8672
G01 X16.4566 Y15.8555
G01 X16.4609 Y15.8441
G01 X16.4658 Y15.8329
G01 X16.4712 Y15.8219
G01 X16.4772 Y15.8112
G01 X16.4837 Y15.8008
G01 X16.4906 Y15.7907
G01 X16.4981 Y15.7810
G01 X16.5060 Y15.7717
G01 X16.5144 Y15.7628
G01 X16.5231 Y15.7542
G01 X16.5779 Y15.7037
G01 X16.5922 Y15.6914
G01 X16.6074 Y15.6803
G01 X16.6234 Y15.6703
G01 X16.6344 Y15.6644
G01 X16.7641 Y15.6024
G01 X16.9102 Y15.4975
G01 X17.0354 Y15.3683
G01 X17.1357 Y15.2190
G01 X17.2080 Y15.0542
G01 X17.2500 Y14.8795
G01 X17.2604 Y14.6997
G01 X17.2387 Y14.5211
G01 X17.1858 Y14.3492
G01 X17.1033 Y14.1893
G01 X16.9938 Y14.0466
G01 X16.8608 Y13.9255
G01 X16.7084 Y13.8299
G01 X16.6508 Y13.8065
G01 X16.6348 Y13.7984
G01 X16.6194 Y13.7893
G01 X16.6095 Y13.7826
G01 X16.6000 Y13.7754
G01 X16.5394 Y13.7275
G01 X16.5255 Y13.7151
G01 X16.5167 Y13.7062
G01 X16.5084 Y13.6969
G01 X16.5006 Y13.6872
G01 X16.4933 Y13.6772
G01 X16.4864 Y13.6668
G01 X16.4801 Y13.6560
G01 X16.4744 Y13.6450
G01 X16.4692 Y13.6337
G01 X16.4645 Y13.6221
G01 X16.4393 Y13.5491
G01 X16.4339 Y13.5313
G01 X16.4298 Y13.5130
G01 X16.4279 Y13.5007
G01 X16.4261 Y13.4821
G01 X16.4257 Y13.4697
G01 X16.4259 Y13.4572
G01 X16.4267 Y13.4448
G01 X16.4281 Y13.4324
G01 X16.4301 Y13.4202
G01 X16.4328 Y13.4080
G01 X16.4496 Y13.3390
G01 X16.4528 Y13.3272
G01 X16.4566 Y13.3155
G01 X16.4609 Y13.3041
G01 X16.4658 Y13.2929
G01 X16.4712 Y13.2819
G01 X16.4772 Y13.2712
G01 X16.4837 Y13.2608
G01 X16.4906 Y13.2507
G01 X16.4981 Y13.2410
G01 X16.5060 Y13.2317
G01 X16.5144 Y13.2228
G01 X16.5231 Y13.2142
G01 X16.5779 Y13.1637
G01 X16.5922 Y13.1514
G01 X16.6074 Y13.1403
G01 X16.6234 Y13.1303
G01 X16.6344 Y13.1244
G01 X16.7641 Y13.0624
G01 X16.9102 Y12.9575
G01 X17.0354 Y12.8283
G01 X17.1357 Y12.6790
G01 X17.2080 Y12.5142
G01 X17.2500 Y12.3393
G01 X17.2604 Y12.1597
G01 X17.2387 Y11.9811
G01 X17.1858 Y11.8092
G01 X17.1033 Y11.6493
G01 X16.9938 Y11.5066
G01 X16.8608 Y11.3855
G01 X16.7084 Y11.2899
G01 X16.6508 Y11.2665
G01 X16.6348 Y11.2584
G01 X16.6194 Y11.2493
G01 X16.6095 Y11.2426
G01 X16.6000 Y11.2354
G01 X16.5394 Y11.1875
G01 X16.5300 Y11.1793
G01 X16.5167 Y11.1662
G01 X16.5084 Y11.1569
G01 X16.5006 Y11.1472
G01 X16.4933 Y11.1372
G01 X16.4864 Y11.1268
G01 X16.4801 Y11.1160
G01 X16.4744 Y11.1050
G01 X16.4692 Y11.0937
G01 X16.4645 Y11.0821
G01 X16.4393 Y11.0091
G01 X16.4339 Y10.9913
G01 X16.4310 Y10.9791
G01 X16.4279 Y10.9607
G01 X16.4261 Y10.9421
G01 X16.4257 Y10.9297
G01 X16.4259 Y10.9172
G01 X16.4267 Y10.9048
G01 X16.4281 Y10.8924
G01 X16.4301 Y10.8802
G01 X16.4328 Y10.8680
G01 X16.4496 Y10.7990
G01 X16.4528 Y10.7872
G01 X16.4566 Y10.7755
G01 X16.4609 Y10.7641
G01 X16.4658 Y10.7529
G01 X16.4712 Y10.7419
G01 X16.4772 Y10.7312
G01 X16.4837 Y10.7208
G01 X16.4906 Y10.7107
G01 X16.4981 Y10.7010
G01 X16.5060 Y10.6917
G01 X16.5144 Y10.6828
G01 X16.5231 Y10.6742
G01 X16.5779 Y10.6237
G01 X16.5922 Y10.6114
G01 X16.6074 Y10.6003
G01 X16.6234 Y10.5903
G01 X16.6344 Y10.5844
G01 X16.7641 Y10.5224
G01 X16.9102 Y10.4175
G01 X17.0354 Y10.2883
G01 X17.1357 Y10.1390
G01 X17.2080 Y9.9742
G01 X17.2500 Y9.7993
G01 X17.2604 Y9.6197
G01 X17.2387 Y9.4411
G01 X17.1858 Y9.2692
G01 X17.1033 Y9.1093
G01 X16.9938 Y8.9666
G01 X16.8608 Y8.8455
G01 X16.7084 Y8.7499
G01 X16.5415 Y8.6828
G01 X16.3614 Y8.6456
G01 X16.3318 Y8.6438
G01 X15.7032 Y8.6437
G01 X15.5698 Y8.6556
G01 X15.3963 Y8.7031
G01 X15.2339 Y8.7806
G01 X15.0878 Y8.8855
G01 X14.9626 Y9.0147
G01 X14.8623 Y9.1640
G01 X14.7900 Y9.3288
G01 X14.7480 Y9.5037
G01 X14.7376 Y9.6833
G01 X14.7593 Y9.8619
G01 X14.8122 Y10.0338
G01 X14.8947 Y10.1937
G01 X15.0042 Y10.3364
G01 X15.1372 Y10.4575
G01 X15.2896 Y10.5531
G01 X15.3472 Y10.5765
G01 X15.3632 Y10.5846
G01 X15.3786 Y10.5937
G01 X15.3885 Y10.6004
G01 X15.3980 Y10.6076
G01 X15.4586 Y10.6555
G01 X15.4680 Y10.6637
G01 X15.4813 Y10.6768
G01 X15.4896 Y10.6861
G01 X15.4974 Y10.6958
G01 X15.5047 Y10.7058
G01 X15.5116 Y10.7162
G01 X15.5179 Y10.7270
G01 X15.5236 Y10.7380
G01 X15.5288 Y10.7493
G01 X15.5335 Y10.7609
G01 X15.5587 Y10.8339
G01 X15.5641 Y10.8517
G01 X15.5682 Y10.8700
G01 X15.5701 Y10.8823
G01 X15.5715 Y10.8947
G01 X15.5723 Y10.9133
G01 X15.5721 Y10.9258
G01 X15.5713 Y10.9382
G01 X15.5699 Y10.9506
G01 X15.5679 Y10.9628
G01 X15.5652 Y10.9750
G01 X15.5484 Y11.0440
G01 X15.5452 Y11.0558
G01 X15.5414 Y11.0675
G01 X15.5371 Y11.0789
G01 X15.5322 Y11.0901
G01 X15.5268 Y11.1011
G01 X15.5208 Y11.1118
G01 X15.5143 Y11.1222
G01 X15.5074 Y11.1323
G01 X15.4999 Y11.1420
G01 X15.4920 Y11.1513
G01 X15.4836 Y11.1602
G01 X15.4749 Y11.1688
G01 X15.4201 Y11.2193
G01 X15.4058 Y11.2316
G01 X15.3906 Y11.2427
G01 X15.3800 Y11.2495
G01 X15.3636 Y11.2586
G01 X15.2339 Y11.3206
G01 X15.0878 Y11.4255
G01 X14.9626 Y11.5547
G01 X14.8623 Y11.7040
G01 X14.7900 Y11.8688
G01 X14.7480 Y12.0437
G01 X14.7376 Y12.2233
G01 X14.7593 Y12.4019
G01 X14.8122 Y12.5738
G01 X14.8947 Y12.7337
G01 X15.0042 Y12.8764
G01 X15.1372 Y12.9975
G01 X15.2896 Y13.0931
G01 X15.3472 Y13.1165
G01 X15.3632 Y13.1246
G01 X15.3786 Y13.1337
G01 X15.3885 Y13.1404
G01 X15.3980 Y13.1476
G01 X15.4586 Y13.1955
G01 X15.4725 Y13.2079
G01 X15.4813 Y13.2168
G01 X15.4896 Y13.2261
G01 X15.4974 Y13.2358
G01 X15.5047 Y13.2458
G01 X15.5116 Y13.2562
G01 X15.5179 Y13.2670
G01 X15.5236 Y13.2780
G01 X15.5288 Y13.2893
G01 X15.5335 Y13.3009
G01 X15.5587 Y13.3739
G01 X15.5641 Y13.3917
G01 X15.5682 Y13.4100
G01 X15.5701 Y13.4223
G01 X15.5715 Y13.4347
G01 X15.5723 Y13.4533
G01 X15.5721 Y13.4658
G01 X15.5713 Y13.4782
G01 X15.5699 Y13.4906
G01 X15.5679 Y13.5028
G01 X15.5652 Y13.5150
G01 X15.5484 Y13.5840
G01 X15.5452 Y13.5958
G01 X15.5414 Y13.6075
G01 X15.5371 Y13.6189
G01 X15.5322 Y13.6301
G01 X15.5268 Y13.6411
G01 X15.5208 Y13.6518
G01 X15.5143 Y13.6622
G01 X15.5074 Y13.6723
G01 X15.4999 Y13.6820
G01 X15.4920 Y13.6913
G01 X15.4836 Y13.7002
G01 X15.4749 Y13.7088
G01 X15.4201 Y13.7593
G01 X15.4058 Y13.7716
G01 X15.3906 Y13.7827
G01 X15.3800 Y13.7895
G01 X15.3636 Y13.7986
G01 X15.2339 Y13.8606
G01 X15.0878 Y13.9655
G01 X14.9626 Y14.0947
G01 X14.8623 Y14.2440
G01 X14.7900 Y14.4088
G01 X14.7580 Y14.5419
G01 X14.7480 Y14.5837
G01 X14.7376 Y14.7633
G01 X14.7593 Y14.9419
G01 X14.8122 Y15.1138
G01 X14.8947 Y15.2737
G01 X15.0042 Y15.4164
G01 X15.1372 Y15.5375
G01 X15.2896 Y15.6331
G01 X15.3472 Y15.6565
G01 X15.3632 Y15.6646
G01 X15.3786 Y15.6737
G01 X15.3885 Y15.6804
G01 X15.3980 Y15.6876
G01 X15.4586 Y15.7355
G01 X15.4680 Y15.7437
G01 X15.4813 Y15.7568
G01 X15.4896 Y15.7661
G01 X15.4974 Y15.7758
G01 X15.5047 Y15.7858
G01 X15.5116 Y15.7962
G01 X15.5179 Y15.8070
G01 X15.5236 Y15.8180
G01 X15.5288 Y15.8293
G01 X15.5335 Y15.8409
G01 X15.5587 Y15.9139
G01 X15.5641 Y15.9317
G01 X15.5670 Y15.9439
G01 X15.5701 Y15.9623
G01 X15.5719 Y15.9809
G01 X15.5723 Y15.9933
G01 X15.5721 Y16.0058
G01 X15.5713 Y16.0182
G01 X15.5699 Y16.0306
G01 X15.5679 Y16.0428
G01 X15.5652 Y16.0550
G01 X15.5484 Y16.1240
G01 X15.5452 Y16.1358
G01 X15.5414 Y16.1475
G01 X15.5371 Y16.1589
G01 X15.5322 Y16.1701
G01 X15.5268 Y16.1811
G01 X15.5208 Y16.1918
G01 X15.5143 Y16.2022
G01 X15.5074 Y16.2123
G01 X15.4999 Y16.2220
G01 X15.4920 Y16.2313
G01 X15.4836 Y16.2402
G01 X15.4749 Y16.2488
G01 X15.4201 Y16.2993
G01 X15.4058 Y16.3116
G01 X15.3906 Y16.3227
G01 X15.3746 Y16.3327
G01 X15.3636 Y16.3386
G01 X15.2339 Y16.4006
G01 X15.0878 Y16.5055
G01 X14.9626 Y16.6347
G01 X14.8623 Y16.7840
G01 X14.7900 Y16.9488
G01 X14.7853 Y16.9682
G01 X14.7480 Y17.1237
G01 X14.7376 Y17.3033
G01 X14.7593 Y17.4819
G01 X14.8122 Y17.6538
G01 X14.8947 Y17.8137
G01 X15.0042 Y17.9564
G01 X15.1372 Y18.0775
G01 X15.2896 Y18.1731
G01 X15.3472 Y18.1965
G01 X15.3632 Y18.2046
G01 X15.3786 Y18.2137
G01 X15.3885 Y18.2204
G01 X15.3980 Y18.2276
G01 X15.4586 Y18.2755
G01 X15.4725 Y18.2879
G01 X15.4813 Y18.2968
G01 X15.4896 Y18.3061
G01 X15.4974 Y18.3158
G01 X15.5047 Y18.3258
G01 X15.5116 Y18.3362
G01 X15.5179 Y18.3470
G01 X15.5236 Y18.3580
G01 X15.5312 Y18.3751
G01 X15.5356 Y18.3868
G01 X15.5587 Y18.4539
G01 X15.5641 Y18.4717
G01 X15.5670 Y18.4839
G01 X15.5692 Y18.4961
G01 X15.5709 Y18.5085
G01 X15.5722 Y18.5271
G01 X15.5721 Y18.5458
G01 X15.5713 Y18.5582
G01 X15.5699 Y18.5706
G01 X15.5679 Y18.5828
G01 X15.5652 Y18.5950
G01 X15.5484 Y18.6640
G01 X15.5434 Y18.6816
G01 X15.5393 Y18.6932
G01 X15.5347 Y18.7045
G01 X15.5295 Y18.7156
G01 X15.5239 Y18.7265
G01 X15.5176 Y18.7370
G01 X15.5074 Y18.7523
G01 X15.4999 Y18.7620
G01 X15.4920 Y18.7713
G01 X15.4836 Y18.7802
G01 X15.4749 Y18.7888
G01 X15.4201 Y18.8393
G01 X15.4058 Y18.8516
G01 X15.3906 Y18.8627
G01 X15.3746 Y18.8727
G01 X15.3636 Y18.8786
G01 X15.2339 Y18.9406
G01 X15.0878 Y19.0455
G01 X14.9626 Y19.1747
G01 X14.8623 Y19.3240
G01 X14.7900 Y19.4888
G01 X14.7862 Y19.5046
G01 X14.7480 Y19.6637
G01 X14.7376 Y19.8433
G01 X14.7593 Y20.0219
G01 X14.8122 Y20.1938
G01 X14.8947 Y20.3537
G01 X15.0042 Y20.4964
G01 X15.1372 Y20.6175
G01 X15.2896 Y20.7131
G01 X15.3472 Y20.7365
G01 X15.3632 Y20.7446
G01 X15.3786 Y20.7537
G01 X15.3885 Y20.7604
G01 X15.3980 Y20.7676
G01 X15.4586 Y20.8155
G01 X15.4725 Y20.8279
G01 X15.4813 Y20.8368
G01 X15.4896 Y20.8461
G01 X15.4974 Y20.8558
G01 X15.5047 Y20.8658
G01 X15.5116 Y20.8762
G01 X15.5179 Y20.8870
G01 X15.5236 Y20.8980
G01 X15.5312 Y20.9151
G01 X15.5356 Y20.9268
G01 X15.5587 Y20.9939
G01 X15.5641 Y21.0117
G01 X15.5682 Y21.0300
G01 X15.5701 Y21.0423
G01 X15.5715 Y21.0547
G01 X15.5722 Y21.0671
G01 X15.5721 Y21.0858
G01 X15.5713 Y21.0982
G01 X15.5699 Y21.1106
G01 X15.5679 Y21.1228
G01 X15.5652 Y21.1350
G01 X15.5484 Y21.2040
G01 X15.5452 Y21.2158
G01 X15.5414 Y21.2275
G01 X15.5371 Y21.2389
G01 X15.5322 Y21.2501
G01 X15.5268 Y21.2611
G01 X15.5208 Y21.2718
G01 X15.5109 Y21.2873
